!!!!SEGMENT: pl-cz--iii-99--001-010_dankowski-adalbert--missa-d-agnus-dei.krn
!!!cenid: 18xx:739
!!!COM: Dankowski, Adalbert
!!!COM-rismID: pe30000793
!!!CDT: ~1760-~1836
!!!CNT: Polish
!!!OPR: Missa D
!!!OTL: Agnus Dei
!!!OMV: 010
!!!PDT:
!!!AGN: Sacred; Mass
!!!YEC: Copyright 2022 Narodowy Instytut Fryderyka Chopina (https://polishscores.org)
!!!YEM: License CC-BY-4.0 (https://creativecommons.org/licenses/by/4.0)
!!!SMS-siglum: PL-CZ
!!!SMS-shelfmark: III-99
!!!SMS-shelfwork: 001-010 M
!!!SMS-variant:
!!!SMS-altvar:
!!!NIFC-rismSourceID: 300000108
!!!NIFC-rismChildID: 300000108
!!!NIFC-islandoraID: pl-cz:41870
!!!URL-pdf-islandora: https://repozytorium.nifc.pl/islandora/object/pl-cz%3A41870/datastream/PDF/view
!!!URL-scan: https://polish.musicsources.pl/pl/lokalizacje/galeria/rekopisy/7048/1 @EN{Scan on Polish Music Sources Website} @PL{Skany w portalu Dziedzictwo Muzyki Polskiej w otwartym dostępie}
!!!IIIF:
!!!ONB-nifc: UWAGA: części Mszy: Kyrie, Gloria, Laudamus, Quoniam, Cum Sancto, Patrem,
!!!AIN: 1 alto 1 bass 2 cor 2 oboe 1 organ 1 soprn 1 tenor 1 timpa 1 viola 2 violn
!!!key: D
**kern	**fba	**dynam	**kern	**dynam	**kern	**dynam	**kern	**dynam	**kern	**text	**kern	**text	**kern	**text	**kern	**text	**kern	**dynam	**kern	**dynam	**kern	**dynam	**kern	**dynam	**kern	**dynam
*	*	*	*group4	*	*group4	*	*group4	*	*group3	*	*group3	*	*group3	*	*group3	*	*	*	*group2	*	*group2	*	*group1	*	*group1	*
*part13	*	*	*part12	*	*part11	*	*part10	*	*part9	*	*part8	*	*part7	*	*part6	*	*part5	*	*part4	*	*part3	*	*part2	*	*part1	*
*staff13	*	*	*staff12	*	*staff11	*	*staff10	*	*staff9	*	*staff8	*	*staff7	*	*staff6	*	*staff5	*	*staff4	*	*staff3	*	*staff2	*	*staff1	*
*I"Organo	*	*	*I"Viola Obligatto	*	*I"Violino Secondo	*	*I"Violino Primo	*	*I"Baſso	*	*I"Tenore	*	*I"Alto	*	*I"Canto	*	*I"Timpano in D. A.	*	*I"Cornu Secondo ex D:	*	*I"Cornu Primo ex D:	*	*I"Oboe Secondo	*	*I"Oboe Primo	*
*I'org	*	*	*I'vla	*	*I'vl 2	*	*I'vl 1	*	*I'B	*	*I'T	*	*I'A	*	*I'S	*	*I'timp	*	*I'cor 2 in D	*	*I'cor 1 in D	*	*I'ob 2	*	*I'ob 1	*
*Iorgan	*	*	*Iviola	*	*Ivioln	*	*Ivioln	*	*Ibass	*	*Itenor	*	*Ialto	*	*Isoprn	*	*Itimpa	*	*Icor	*	*Icor	*	*Ioboe	*	*Ioboe	*
*ICklav	*	*	*ICstr	*	*ICstr	*	*ICstr	*	*ICvox	*	*ICvox	*	*ICvox	*	*ICvox	*	*ICidio	*	*ICbras	*	*ICbras	*	*ICww	*	*ICww	*
*IGcont	*	*	*	*	*	*	*	*	*IGcoro	*	*IGcoro	*	*IGcoro	*	*IGcoro	*	*	*	*	*	*	*	*	*	*	*
*mI"Organo	*	*	*mI"Viola obligato	*	*mI"Violino II	*	*mI"Violino I	*	*mI"Basso	*	*	*	*	*	*mI"Soprano	*	*mI"Timpani in D.A.	*	*mI"Corno II in D	*	*mI"Corno I in D	*	*mI"Oboe II	*	*mI"Oboe I	*
*clefF4	*	*	*clefC3	*	*clefG2	*	*clefG2	*	*clefF4	*	*clefC4	*	*clefC3	*	*clefC1	*	*clefF4	*	*clefG2	*	*clefG2	*	*clefG2	*	*clefG2	*
*	*	*	*	*	*	*	*	*	*	*	*mclefGv2	*	*mclefG2	*	*mclefG2	*	*	*	*	*	*	*	*	*	*	*
*	*	*	*	*	*	*	*	*	*	*	*	*	*	*	*	*	*	*	*ITrd6c10	*	*ITrd6c10	*	*	*	*	*
*k[f#c#]	*	*	*k[f#c#]	*	*k[f#c#]	*	*k[f#c#]	*	*k[f#c#]	*	*k[c#f#]	*	*k[f#c#]	*	*k[f#c#]	*	*k[]	*	*k[f#c#]	*	*k[f#c#]	*	*k[f#c#]	*	*k[f#c#]	*
*D:	*	*	*D:	*	*D:	*	*D:	*	*D:	*	*D:	*	*D:	*	*D:	*	*D:	*	*D:	*	*D:	*	*D:	*	*D:	*
*M3/4	*	*	*M3/4	*	*M3/4	*	*M3/4	*	*M3/4	*	*M3/4	*	*M3/4	*	*M3/4	*	*M3/4	*	*M3/4	*	*M3/4	*	*M3/4	*	*M3/4	*
=1	=1	=1	=1	=1	=1	=1	=1	=1	=1	=1	=1	=1	=1	=1	=1	=1	=1	=1	=1	=1	=1	=1	=1	=1	=1	=1
*	*	*	*	*	*	*	*	*	*	*	*2\right	*	*2\right	*	*	*	*	*	*	*	*	*	*2\right	*	*2\right	*
!	!	!	!	!	!	!LO:MO:null:mod=!LO&colon;DY&colon;ed=brack	!	!	!	!	!	!	!	!	!	!	!LO:TX:a:t=42.:mod=	!	!	!	!	!	!	!	!	!
!LO:TX:a:i:t=Solo	!	!	!	!	!	!	!	!	!	!	!LO:TX:a:i:t=Solo	!	!LO:TX:a:i:t=Solo	!	!LO:TX:a:t=P:problem=znaki f# cc#	!	!LO:TX:b:t=42.:mod=	!	!	!	!	!	!LO:TX:a:i:t=Solo&colon;:mod=Solo	!	!LO:TX:a:i:t=Solo:mod=Solo	!
!LO:TX:a:i:mod=:t=andante	!	!LO:DY:t=pio	!LO:TX:a:i:mod=:t=andan&colon;	!LO:MO:null:mod=p	!LO:TX:a:i:mod=:t=andante	!LO:MO:null:mod=p	!LO:TX:a:i:rj:mod=:t=andante	!LO:MO:null:mod=p	!LO:TX:a:i:mod=:t=andante	!	!LO:TX:a:i:rj:mod=:t=andante	!	!LO:TX:a:i:rj:mod=:t=andante	!	!LO:TX:a:i:mod=:t=andante	!	!LO:TX:a:i:mod=:t=andante	!	!LO:TX:a:i:mod=:t=andante	!	!LO:TX:a:i:mod=:t=andan	!	!LO:TX:a:i:rj:mod=:t=andan&colon;	!	!LO:TX:a:i:rj:mod=:t=andan&colon;	!
4D\	.	p	4A/	.	(8d/L	.	(8f#/L	.	0.r	.	2.d\	A-	2.f#\	A-	0.r	.	2.r	.	0.r	.	0.r	.	2.dd\	.	2.ff#\	.
.	.	.	.	.	8f#/J)	.	8a/J)	.	.	.	.	.	.	.	.	.	.	.	.	.	.	.	.	.	.	.
!	!	!	!	!LO:DY:a:t=pio	!	!	!	!LO:DY:a:t=pio	!	!	!	!	!	!	!	!	!	!	!	!	!	!	!	!	!	!
!	!	!	!	!LO:MO:null:mod=.	!	!	!	!LO:MO:null:mod=.	!	!	!	!	!	!	!	!	!	!	!	!	!	!	!	!	!	!
4D\	.	.	4A/	p	8r	.	8r	p	.	.	.	.	.	.	.	.	.	.	.	.	.	.	.	.	.	.
.	.	.	.	.	8f#/L|	.	8a/L|	.	.	.	.	.	.	.	.	.	.	.	.	.	.	.	.	.	.	.
4r	.	.	4r	.	(8e/	.	(8g/	.	.	.	.	.	.	.	.	.	.	.	.	.	.	.	.	.	.	.
.	.	.	.	.	8d/J)	.	8f#/J)	.	.	.	.	.	.	.	.	.	.	.	.	.	.	.	.	.	.	.
=2	=2	=2	=2	=2	=2	=2	=2	=2	=2	=2	=2	=2	=2	=2	=2	=2	=2	=2	=2	=2	=2	=2	=2	=2	=2	=2
!	!	!	!	!	!	!LO:DY:a:rj:t=p&colon;	!	!	!	!	!	!	!	!	!	!	!	!	!	!	!	!	!	!	!	!
!	!	!	!	!	!	!LO:MO:null:mod=.	!	!	!	!	!	!	!	!	!	!	!	!	!	!	!	!	!	!	!	!
4AA/	.	.	4A/	.	(8c#/L	p	(8e/L	.	.	.	2.e\	-gnus	2.g\	-gnus	.	.	2.r	.	.	.	.	.	2.ee\	.	2.gg\	.
.	.	.	.	.	8e/J)	.	8g/J)	.	.	.	.	.	.	.	.	.	.	.	.	.	.	.	.	.	.	.
4AA/	.	.	4A/	.	8r	.	8r	.	.	.	.	.	.	.	.	.	.	.	.	.	.	.	.	.	.	.
.	.	.	.	.	8e/L|	.	8g/L|	.	.	.	.	.	.	.	.	.	.	.	.	.	.	.	.	.	.	.
4r	.	.	4r	.	(8d/	.	(8f#/	.	.	.	.	.	.	.	.	.	.	.	.	.	.	.	.	.	.	.
.	.	.	.	.	8c#/J)	.	8e/J)	.	.	.	.	.	.	.	.	.	.	.	.	.	.	.	.	.	.	.
=3	=3	=3	=3	=3	=3	=3	=3	=3	=3	=3	=3	=3	=3	=3	=3	=3	=3	=3	=3	=3	=3	=3	=3	=3	=3	=3
4D\	.	.	4A/	.	8d/L	.	8f#/L	.	.	.	2f#\	De-	2a\	De-	.	.	2.r	.	.	.	.	.	2ff#\	.	2aa\	.
.	.	.	.	.	8f#/J	.	8a/J	.	.	.	.	.	.	.	.	.	.	.	.	.	.	.	.	.	.	.
4D\	.	.	4A/	.	8r	.	8r	.	.	.	.	.	.	.	.	.	.	.	.	.	.	.	.	.	.	.
.	.	.	.	.	8f#/L	.	8a/L	.	.	.	.	.	.	.	.	.	.	.	.	.	.	.	.	.	.	.
4D\	.	.	4A/	.	8d/	.	8f#/	.	.	.	8d\	-i	8f#\	-i	.	.	.	.	.	.	.	.	8dd\L	.	8ff#\L	.
!	!	!	!	!	!	!	!	!	!	!	!	!LO:MO:mod=qui	!	!LO:MO:mod=qui	!	!	!	!	!	!	!	!	!	!	!	!
.	.	.	.	.	8f#/J	.	8a/J	.	.	.	8f#\	qvi	8a\	qvi	.	.	.	.	.	.	.	.	8ff#\J	.	8aa\J	.
=4	=4	=4	=4	=4	=4	=4	=4	=4	=4	=4	=4	=4	=4	=4	=4	=4	=4	=4	=4	=4	=4	=4	=4	=4	=4	=4
4AA/	.	.	4A/	.	8.e/L	.	8.g/L	.	.	.	4e\	tol-	4g\	tol-	.	.	2.r	.	.	.	.	.	4ee\	.	4gg\	.
.	.	.	.	.	16c#/Jk	.	16e/Jk	.	.	.	.	.	.	.	.	.	.	.	.	.	.	.	.	.	.	.
4D\	.	.	4A/	.	8d/L	.	8f#/L	.	.	.	4d\	-lis	4f#\	-lis	.	.	.	.	.	.	.	.	4dd\	.	4ff#\	.
.	.	.	.	.	16f#/L	.	16a/L	.	.	.	.	.	.	.	.	.	.	.	.	.	.	.	.	.	.	.
.	.	.	.	.	16e/JJ	.	16g/JJ	.	.	.	.	.	.	.	.	.	.	.	.	.	.	.	.	.	.	.
4r	.	.	4r	.	8d/L	.	8f#/L	.	.	.	8r	.	8r	.	.	.	.	.	.	.	.	.	8r	.	8r	.
*	*	*	*	*	*	*	*	*	*	*	*	*ij	*	*ij	*	*	*	*	*	*	*	*	*	*	*	*
!	!	!	!	!	!	!	!	!	!	!	!	!LO:MO:mod=qui	!	!LO:MO:mod=qui	!	!	!	!	!	!	!	!	!	!	!	!
.	.	.	.	.	8d/J	.	8f#/J	.	.	.	8d\	qvi	8f#\	qvi	.	.	.	.	.	.	.	.	8dd\	.	8ff#\	.
!	!	!	!	!	!LO:LB:g=original	!	!LO:LB:g=original	!	!	!	!	!	!	!	!	!	!	!	!	!	!	!	!	!	!	!
=5	=5	=5	=5	=5	=5	=5	=5	=5	=5	=5	=5	=5	=5	=5	=5	=5	=5	=5	=5	=5	=5	=5	=5	=5	=5	=5
4A\	.	.	4A/	.	4.c#/	.	4.e/	.	0.r	.	8.e\L	tol-	8.g\L	tol-	0.r	.	2.r	.	0.r	.	0.r	.	(8.ee\L	.	8.gg\L	.
.	.	.	.	.	.	.	.	.	.	.	16d\Jk	.	16f#\Jk	.	.	.	.	.	.	.	.	.	16dd\Jk)	.	16ff#\Jk	.
4AA/	.	.	4A/	.	.	.	.	.	.	.	4c#\	-lis	4e\	-lis	.	.	.	.	.	.	.	.	4cc#\	.	4ee\	.
*	*	*	*	*	*	*	*	*	*	*	*	*Xij	*	*Xij	*	*	*	*	*	*	*	*	*	*	*	*
.	.	.	.	.	16e/LL	.	16g/LL	.	.	.	.	.	.	.	.	.	.	.	.	.	.	.	.	.	.	.
.	.	.	.	.	16d/JJ	.	16f#/JJ	.	.	.	.	.	.	.	.	.	.	.	.	.	.	.	.	.	.	.
!	!	!	!	!	!	!	!	!	!	!	!LO:LB:g=original	!	!	!	!	!	!	!	!	!	!	!	!	!	!	!
4r	.	.	4r	.	8c#/L	.	8e/L	.	.	.	8r	.	8r	.	.	.	.	.	.	.	.	.	8r	.	8r	.
!	!	!	!	!	!	!	!	!	!	!	!	!LO:MO:mod=qui	!	!LO:MO:mod=qui	!	!	!	!	!	!	!	!	!	!	!	!
.	.	.	.	.	8c#/J	.	8e/J	.	.	.	8c#\	qvi	8e\	qvi	.	.	.	.	.	.	.	.	8cc#\	.	8ee\	.
!	!	!	!	!	!	!	!	!	!	!	!	!	!LO:LB:g=original	!	!	!	!	!	!	!	!	!	!	!	!	!
=6	=6	=6	=6	=6	=6	=6	=6	=6	=6	=6	=6	=6	=6	=6	=6	=6	=6	=6	=6	=6	=6	=6	=6	=6	=6	=6
4D\	.	.	4A/	.	4.d/	.	4.f#/	.	.	.	8.f#\L	tol-	8.a\L	tol-	.	.	2.r	.	.	.	.	.	(8.ff#\L	.	8.aa\L	.
.	.	.	.	.	.	.	.	.	.	.	16e\Jk	.	16g\Jk	.	.	.	.	.	.	.	.	.	16ee\Jk)	.	16gg\Jk	.
4D\	.	.	4A/	.	.	.	.	.	.	.	4d\	-lis	4f#\	-lis	.	.	.	.	.	.	.	.	4dd\	.	4ff#\	.
!	!	!	!	!	!LO:SIC:v:o=16e/LL	!	!	!	!	!	!	!	!	!	!	!	!	!	!	!	!	!	!	!	!	!
.	.	.	.	.	16fLL	.	16a/LL	.	.	.	.	.	.	.	.	.	.	.	.	.	.	.	.	.	.	.
!	!	!	!	!	!LO:SIC:v:o=16d/JJ	!	!	!	!	!	!	!	!	!	!	!	!	!	!	!	!	!	!	!	!	!
.	.	.	.	.	16e-JJ	.	16g/JJ	.	.	.	.	.	.	.	.	.	.	.	.	.	.	.	.	.	.	.
!	!	!	!	!	!LO:SIC:v:o=8c#/L	!	!	!	!	!	!	!	!	!	!	!	!	!	!	!	!	!	!	!	!	!
4r	.	.	4r	.	8dL	.	8f#/L	.	.	.	8r	.	8r	.	.	.	.	.	.	.	.	.	8r	.	8r	.
!	!	!	!	!	!LO:SIC:v:o=8c#/J	!	!	!	!	!	!	!	!	!	!	!	!	!	!	!	!	!	!	!	!	!
.	.	.	.	.	8dJ	.	8f#/J	.	.	.	8d\	pec-	8f#\	pec-	.	.	.	.	.	.	.	.	8dd\	.	8ff#\	.
!LO:LB:g=original	!	!	!LO:LB:g=original	!	!	!	!	!	!	!	!	!	!	!	!	!	!	!	!	!	!	!	!LO:LB:g=original	!	!LO:LB:g=original	!
=7	=7	=7	=7	=7	=7	=7	=7	=7	=7	=7	=7	=7	=7	=7	=7	=7	=7	=7	=7	=7	=7	=7	=7	=7	=7	=7
4G\	6_	.	4B/	.	8e/L	.	8g/L	.	.	.	2e\	-ca-	2g\	-ca-	.	.	2.r	.	.	.	.	.	2ee\	.	2gg\	.
.	.	.	.	.	16g/L	.	16b/L	.	.	.	.	.	.	.	.	.	.	.	.	.	.	.	.	.	.	.
.	.	.	.	.	16f#/JJ	.	16a/JJ	.	.	.	.	.	.	.	.	.	.	.	.	.	.	.	.	.	.	.
4G\	.	.	4B/	.	8e/L	.	8g/L	.	.	.	.	.	.	.	.	.	.	.	.	.	.	.	.	.	.	.
.	.	.	.	.	8e/	.	8g/	.	.	.	.	.	.	.	.	.	.	.	.	.	.	.	.	.	.	.
4G#X\	5	.	4B/	.	8d/	.	8f#/	.	.	.	4d\	-ta	4f#\	-ta	.	.	.	.	.	.	.	.	4dd\	.	4ff#\	.
.	.	.	.	.	8d/J	.	8f#/J	.	.	.	.	.	.	.	.	.	.	.	.	.	.	.	.	.	.	.
=8	=8	=8	=8	=8	=8	=8	=8	=8	=8	=8	=8	=8	=8	=8	=8	=8	=8	=8	=8	=8	=8	=8	=8	=8	=8	=8
4A\	4	.	4A/	.	8d/L	.	8f#/L	.	.	.	4d\	mun-	4f#\	mun-	.	.	2.r	.	.	.	.	.	4dd\	.	4ff#\	.
.	.	.	.	.	16c#/L	.	16e/L	.	.	.	.	.	.	.	.	.	.	.	.	.	.	.	.	.	.	.
.	.	.	.	.	16d/JJ	.	16f#/JJ	.	.	.	.	.	.	.	.	.	.	.	.	.	.	.	.	.	.	.
4AA/	3	.	4A/	.	8c#/L	.	8e/L	.	.	.	4c#\	-di	4e\	-di	.	.	.	.	.	.	.	.	4cc#\	.	4ee\	.
.	.	.	.	.	16d/L	.	16f#/L	.	.	.	.	.	.	.	.	.	.	.	.	.	.	.	.	.	.	.
.	.	.	.	.	16e/JJ	.	16g/JJ	.	.	.	.	.	.	.	.	.	.	.	.	.	.	.	.	.	.	.
!	!	!	!	!	!	!	!	!LO:DY:a:t=for	!	!	!	!	!	!	!	!	!	!	!	!	!	!	!	!	!	!
!	!	!	!	!	!	!	!	!LO:MO:null:mod=.	!	!	!	!	!	!	!	!	!	!	!	!	!	!	!	!	!	!
4r	.	.	4r	.	16f#/LL	.	16a\LL	f	.	.	4r	.	4r	.	.	.	.	.	.	.	.	.	4r	.	4r	.
!	!	!	!	!	!LO:SIC:v:o=16g#X/	!	!	!	!	!	!	!	!	!	!	!	!	!	!	!	!	!	!	!	!	!
.	.	.	.	.	16g	.	16b\	.	.	.	.	.	.	.	.	.	.	.	.	.	.	.	.	.	.	.
.	.	.	.	.	16a/	.	16cc#\	.	.	.	.	.	.	.	.	.	.	.	.	.	.	.	.	.	.	.
.	.	.	.	.	16b/JJ	.	16dd\JJ	.	.	.	.	.	.	.	.	.	.	.	.	.	.	.	.	.	.	.
=9	=9	=9	=9	=9	=9	=9	=9	=9	=9	=9	=9	=9	=9	=9	=9	=9	=9	=9	=9	=9	=9	=9	=9	=9	=9	=9
*	*	*	*	*	*	*	*	*	*2\right	*	*	*	*	*	*2\right	*	*	*	*	*	*2\right	*	*	*	*	*
!	!	!LO:MO:null:mod=!LO&colon;DY&colon;ed=brack	!	!	!	!	!	!	!	!	!	!	!	!	!	!	!	!	!	!	!	!	!	!	!	!
!	!	!	!	!	!	!	!	!	!	!	!LO:MO:null:mod=!LO&colon;TX&colon;i&colon;t=Tutti	!	!LO:MO:null:mod=!LO&colon;TX&colon;i&colon;t=Tutti	!	!	!	!	!	!	!	!	!	!	!	!	!
!LO:TX:a:i:rj:t=tutti	!	!LO:MO:null:mod=f	!	!LO:DY:a:t=f&colon;	!	!LO:DY:a:rj:t=f&colon;	!	!LO:MO:null:mod=f	!	!	!	!	!	!	!	!	!	!	!	!LO:DY:a:t=f&colon;	!	!LO:DY:a:t=f&colon;	!	!LO:DY:a:t=f&colon;	!	!LO:DY:a:t=f&colon;
8A\L	.	.	8e\L	f	4.cc#\	f	4.ee\	.	2A\	mi-	2e\	mi-	2e\	mi-	2cc#\	mi-	2.r	.	2.A/	f	2.e\	f	2.cc#\	f	2.ee\	f
8A\	.	.	8e\	.	.	.	.	.	.	.	.	.	.	.	.	.	.	.	.	.	.	.	.	.	.	.
8A\	.	.	8e\	.	.	.	.	.	.	.	.	.	.	.	.	.	.	.	.	.	.	.	.	.	.	.
8A\	.	.	8e\	.	16b\LL	.	16dd\LL	.	.	.	.	.	.	.	.	.	.	.	.	.	.	.	.	.	.	.
.	.	.	.	.	16cc#\JJ	.	16cc#\JJ	.	.	.	.	.	.	.	.	.	.	.	.	.	.	.	.	.	.	.
!	!	!	!	!	!LO:LB:g=original	!	!LO:LB:g=original	!	!	!	!	!	!	!	!	!	!	!	!	!	!	!	!	!	!	!
8A\	.	.	8e\	.	16ff#\LL	.	16ff#\LL	.	4A\	-ſe-	4e\	-ſe-	4e\	-ſe-	4cc#\	-ſe-	.	.	.	.	.	.	.	.	.	.
.	.	.	.	.	16ee\	.	16ee\	.	.	.	.	.	.	.	.	.	.	.	.	.	.	.	.	.	.	.
8A\J	.	.	8e\J	.	16dd\	.	16dd\	.	.	.	.	.	.	.	.	.	.	.	.	.	.	.	.	.	.	.
.	.	.	.	.	16cc#\JJ	.	16cc#\JJ	.	.	.	.	.	.	.	.	.	.	.	.	.	.	.	.	.	.	.
=10	=10	=10	=10	=10	=10	=10	=10	=10	=10	=10	=10	=10	=10	=10	=10	=10	=10	=10	=10	=10	=10	=10	=10	=10	=10	=10
4D\	.	.	4f#\	.	16cc#\LL	.	16cc#\LL	.	4D\	-re-	4d\	-re-	4f#\	-re-	4b\	-re-	2.r	.	4d\	.	4f#\	.	4b\	.	4ff#\	.
.	.	.	.	.	16b\	.	16b\	.	.	.	.	.	.	.	.	.	.	.	.	.	.	.	.	.	.	.
.	.	.	.	.	16b\	.	16b\	.	.	.	.	.	.	.	.	.	.	.	.	.	.	.	.	.	.	.
.	.	.	.	.	16a#X\JJ	.	16a#X\JJ	.	.	.	.	.	.	.	.	.	.	.	.	.	.	.	.	.	.	.
4D\	.	.	4f#\	.	8b\L	.	8b\L	.	4D\	-re	4d\	-re	4f#\	-re	4b\	-re	.	.	4d\	.	4f#\	.	4b\	.	4ff#\	.
.	.	.	.	.	8b\J	.	8b\J	.	.	.	.	.	.	.	.	.	.	.	.	.	.	.	.	.	.	.
4r	.	.	4r	.	16b\LL	.	16b\LL	.	4r	.	4r	.	4r	.	4r	.	.	.	4r	.	4r	.	4r	.	4r	.
.	.	.	.	.	16a#\	.	16a#\	.	.	.	.	.	.	.	.	.	.	.	.	.	.	.	.	.	.	.
.	.	.	.	.	16b\	.	16b\	.	.	.	.	.	.	.	.	.	.	.	.	.	.	.	.	.	.	.
.	.	.	.	.	16cc#\JJ	.	16cc#\JJ	.	.	.	.	.	.	.	.	.	.	.	.	.	.	.	.	.	.	.
!	!	!	!	!	!	!	!	!	!	!	!LO:LB:g=original	!	!	!	!	!	!	!	!	!	!	!	!	!	!	!
=11	=11	=11	=11	=11	=11	=11	=11	=11	=11	=11	=11	=11	=11	=11	=11	=11	=11	=11	=11	=11	=11	=11	=11	=11	=11	=11
*	*	*	*	*	*	*	*	*	*	*ij	*	*	*	*	*	*ij	*	*	*2\right	*	*	*	*	*	*	*
8E\L	#_	.	8g#X\L	.	4.dd\	.	4.dd\	.	2E\	mi-	2d\	mi-	2g#X\	mi-	2b\	mi-	2.r	.	2.e\	.	2.g#X\	.	2.b\	.	2.gg#X\	.
8E\	.	.	8g#\	.	.	.	.	.	.	.	.	.	.	.	.	.	.	.	.	.	.	.	.	.	.	.
8E\	.	.	8g#\	.	.	.	.	.	.	.	.	.	.	.	.	.	.	.	.	.	.	.	.	.	.	.
8E\	.	.	8g#\	.	16cc#\LL	.	16cc#\LL	.	.	.	.	.	.	.	.	.	.	.	.	.	.	.	.	.	.	.
.	.	.	.	.	16b\JJ	.	16b\JJ	.	.	.	.	.	.	.	.	.	.	.	.	.	.	.	.	.	.	.
8E\	.	.	8g#\	.	16ee\LL	.	16ee\LL	.	4E\	-ſe-	4d\	-ſe-	4g#\	-ſe-	4b\	-ſe-	.	.	.	.	.	.	.	.	.	.
.	.	.	.	.	16dd\	.	16dd\	.	.	.	.	.	.	.	.	.	.	.	.	.	.	.	.	.	.	.
8E\J	.	.	8g#\J	.	16cc#\	.	16cc#\	.	.	.	.	.	.	.	.	.	.	.	.	.	.	.	.	.	.	.
.	X	.	.	.	16b\JJ	.	16b\JJ	.	.	.	.	.	.	.	.	.	.	.	.	.	.	.	.	.	.	.
!	!	!	!	!	!	!	!	!	!	!	!	!	!LO:LB:g=original	!	!	!	!	!	!	!	!	!	!	!	!	!
=12	=12	=12	=12	=12	=12	=12	=12	=12	=12	=12	=12	=12	=12	=12	=12	=12	=12	=12	=12	=12	=12	=12	=12	=12	=12	=12
4F#\	.	.	4c#\	.	16b/LL	.	16b/LL	.	4F#\	-re-	4c#\	-re-	4a\	-re-	4cc#\	-re-	2.r	.	4A/	.	4a\	.	4cc#\	.	4aa\	.
.	.	.	.	.	16a/	.	16a/	.	.	.	.	.	.	.	.	.	.	.	.	.	.	.	.	.	.	.
.	.	.	.	.	16a/	.	16a/	.	.	.	.	.	.	.	.	.	.	.	.	.	.	.	.	.	.	.
.	.	.	.	.	16g#X/JJ	.	16g#X/JJ	.	.	.	.	.	.	.	.	.	.	.	.	.	.	.	.	.	.	.
4F#\	.	.	4c#\	.	8a/L	.	8a/L	.	4F#\	-re	4c#\	-re	4a\	-re	4cc#\	-re	.	.	4A/	.	4a\	.	4cc#\	.	4aa\	.
*	*	*	*	*	*	*	*	*	*	*Xij	*	*	*	*	*	*	*	*	*	*	*	*	*	*	*	*
.	.	.	.	.	8a/J	.	8a/J	.	.	.	.	.	.	.	.	.	.	.	.	.	.	.	.	.	.	.
4r	.	.	4r	.	16g#/LL	.	16g#/LL	.	4r	.	4r	.	4r	.	4r	.	.	.	4r	.	4r	.	4r	.	4r	.
.	.	.	.	.	16a/	.	16a/	.	.	.	.	.	.	.	.	.	.	.	.	.	.	.	.	.	.	.
.	.	.	.	.	16b/	.	16b/	.	.	.	.	.	.	.	.	.	.	.	.	.	.	.	.	.	.	.
.	.	.	.	.	16cc#/JJ	.	16cc#/JJ	.	.	.	.	.	.	.	.	.	.	.	.	.	.	.	.	.	.	.
!	!	!	!LO:LB:g=original	!	!	!	!	!	!LO:LB:g=original	!	!	!	!	!	!	!	!	!	!	!	!	!	!	!	!	!
=13	=13	=13	=13	=13	=13	=13	=13	=13	=13	=13	=13	=13	=13	=13	=13	=13	=13	=13	=13	=13	=13	=13	=13	=13	=13	=13
*tremolo	*	*	*	*	*	*	*	*	*	*	*	*	*	*	*	*	*	*	*	*	*	*	*	*	*	*
*2\right	*	*	*	*	*	*	*	*	*	*	*	*ij	*	*	*	*	*	*	*	*	*	*	*	*	*	*
8G#X\L	6 5	.	16B\LL	.	8.b\L	.	8.dd\L	.	2G#X\	mi-	2e\	mi-	2b\	mi-	2dd\	mi-	2.r	.	2.e\	.	2.e\	.	2.dd\	.	2.bb\	.
.	.	.	16e\	.	.	.	.	.	.	.	.	.	.	.	.	.	.	.	.	.	.	.	.	.	.	.
8G#X\	.	.	16B\	.	.	.	.	.	.	.	.	.	.	.	.	.	.	.	.	.	.	.	.	.	.	.
.	.	.	16e\JJ	.	16cc#\Jk	.	16ee\Jk	.	.	.	.	.	.	.	.	.	.	.	.	.	.	.	.	.	.	.
!	!	!	!	!	!LO:LB:g=original	!	!	!	!	!	!	!	!	!	!	!	!	!	!	!	!	!	!	!	!	!
8G#X\	.	.	16B\LL	.	8b\L	.	8dd\L	.	.	.	.	.	.	.	.	.	.	.	.	.	.	.	.	.	.	.
.	.	.	16e\	.	.	.	.	.	.	.	.	.	.	.	.	.	.	.	.	.	.	.	.	.	.	.
8G#X\	.	.	16B\	.	8b\	.	8dd\J	.	.	.	.	.	.	.	.	.	.	.	.	.	.	.	.	.	.	.
.	.	.	16e\JJ	.	.	.	.	.	.	.	.	.	.	.	.	.	.	.	.	.	.	.	.	.	.	.
!	!	!	!	!	!	!	!LO:LB:g=original	!	!	!	!	!	!	!	!	!	!	!	!	!	!	!	!	!	!	!
8G#X\	.	.	16B\LL	.	8dd\	.	16bb\LL	.	4G#\	-ſe-	4d\	-ſe-	4b\	-ſe-	4dd\	-ſe-	.	.	.	.	.	.	.	.	.	.
.	.	.	16e\	.	.	.	16gg#X\	.	.	.	.	.	.	.	.	.	.	.	.	.	.	.	.	.	.	.
8G#X\J	.	.	16B\	.	8b\J	.	16ee\	.	.	.	.	.	.	.	.	.	.	.	.	.	.	.	.	.	.	.
.	.	.	16e\JJ	.	.	.	16dd\JJ	.	.	.	.	.	.	.	.	.	.	.	.	.	.	.	.	.	.	.
*Xtremolo	*	*	*	*	*	*	*	*	*	*	*	*	*	*	*	*	*	*	*	*	*	*	*	*	*	*
!LO:LB:g=original	!	!	!	!	!	!	!	!	!	!	!	!	!	!	!	!	!	!	!	!	!	!	!	!	!	!
=14	=14	=14	=14	=14	=14	=14	=14	=14	=14	=14	=14	=14	=14	=14	=14	=14	=14	=14	=14	=14	=14	=14	=14	=14	=14	=14
8A\L	.	.	16c#\LL	.	8.a/L	.	8.cc#\L	.	2A\	-re-	2e\	-re-	2a\	-re-	2cc#\	-re-	2.r	.	2.A/	.	2.e\	.	2.cc#\	.	2.aa\	.
.	.	.	16e\	.	.	.	.	.	.	.	.	.	.	.	.	.	.	.	.	.	.	.	.	.	.	.
8A\	.	.	16c#\	.	.	.	.	.	.	.	.	.	.	.	.	.	.	.	.	.	.	.	.	.	.	.
.	.	.	16e\JJ	.	16b/Jk	.	16dd\Jk	.	.	.	.	.	.	.	.	.	.	.	.	.	.	.	.	.	.	.
8A\	.	.	16c#\LL	.	8a/L	.	8cc#\L	.	.	.	.	.	.	.	.	.	.	.	.	.	.	.	.	.	.	.
.	.	.	16e\	.	.	.	.	.	.	.	.	.	.	.	.	.	.	.	.	.	.	.	.	.	.	.
8A\	.	.	16c#\	.	8a/J	.	8cc#\J	.	.	.	.	.	.	.	.	.	.	.	.	.	.	.	.	.	.	.
.	.	.	16e\JJ	.	.	.	.	.	.	.	.	.	.	.	.	.	.	.	.	.	.	.	.	.	.	.
8A\	.	.	16c#\LL	.	8cc#\L	.	16ee\LL	.	4A\	-re	4e\	-re	4a\	-re	4cc#\	-re	.	.	.	.	.	.	.	.	.	.
*	*	*	*	*	*	*	*	*	*	*	*	*Xij	*	*	*	*Xij	*	*	*	*	*	*	*	*	*	*
.	.	.	16e\	.	.	.	16ff#\	.	.	.	.	.	.	.	.	.	.	.	.	.	.	.	.	.	.	.
8A\J	.	.	16c#\	.	8ee\J	.	16gg#X\	.	.	.	.	.	.	.	.	.	.	.	.	.	.	.	.	.	.	.
.	.	.	16e\JJ	.	.	.	16aa\JJ	.	.	.	.	.	.	.	.	.	.	.	.	.	.	.	.	.	.	.
!	!	!	!	!	!	!	!	!	!	!	!	!	!	!	!LO:LB:g=original	!	!	!	!	!	!	!	!	!	!	!
=15	=15	=15	=15	=15	=15	=15	=15	=15	=15	=15	=15	=15	=15	=15	=15	=15	=15	=15	=15	=15	=15	=15	=15	=15	=15	=15
!LO:TX:a:t=P:problem=mixed beam	!	!	!	!	!	!	!	!	!	!	!	!	!	!	!	!	!	!	!	!	!	!	!	!	!	!
!LO:SIC:v:o=8C#\L	!	!	!	!	!	!	!	!	!	!	!	!	!	!	!	!	!	!	!	!	!	!	!	!	!	!
8DL	6	.	8f#\L	.	8dd\L	.	8ff#\L	.	4D\	no-	4f#\	no-	4b\	no-	4dd\	no-	2.r	.	4d\	.	4f#\	.	4dd\	.	4bb\	.
8D\	.	.	8f#\	.	16cc#\L	.	16ee\L	.	.	.	.	.	.	.	.	.	.	.	.	.	.	.	.	.	.	.
.	.	.	.	.	16b\JJ	.	16dd\JJ	.	.	.	.	.	.	.	.	.	.	.	.	.	.	.	.	.	.	.
8E\	4	.	8e\	.	4a/	.	4cc#\	.	2E\	.	2e\	.	4a\	.	4cc#\	.	.	.	4e\	.	4e\	.	4cc#\	.	4aa\	.
8E\	.	.	8e\	.	.	.	.	.	.	.	.	.	.	.	.	.	.	.	.	.	.	.	.	.	.	.
!	!	!	!	!	!	!	!LO:TX:a:i:t=Solo:mod=	!	!	!	!	!	!	!	!	!	!	!	!	!	!	!	!	!	!	!
8EE/	#	.	8e\	.	4g#X/	.	4b\	.	.	.	.	.	4g#X\	.	4b\	.	.	.	4e\	.	4d\	.	4b\	.	4gg#X\	.
!	!	!	!LO:TX:a:i:t=Solo&colon;:mod=	!	!	!	!	!	!	!	!	!	!	!	!	!	!	!	!	!	!	!	!	!	!	!
8EE/J	.	.	8e\J	.	.	.	.	.	.	.	.	.	.	.	.	.	.	.	.	.	.	.	.	.	.	.
!	!	!	!	!	!	!	!	!	!	!	!	!	!	!	!	!	!	!	!LO:LB:g=original	!	!LO:LB:g=original	!	!LO:LB:g=original	!	!LO:LB:g=original	!
=16	=16	=16	=16	=16	=16	=16	=16	=16	=16	=16	=16	=16	=16	=16	=16	=16	=16	=16	=16	=16	=16	=16	=16	=16	=16	=16
!	!	!	!	!LO:MO:null:mod=!LO&colon;DY&colon;ed=brack	!	!	!	!LO:MO:null:mod=!LO&colon;DY&colon;ed=brack	!	!	!	!	!	!	!	!	!	!	!	!	!	!	!	!	!	!
!	!	!	!	!	!	!	!	!	!	!	!	!	!	!	!	!	!	!	!	!	!	!	!	!	!	!
!	!	!LO:DY:a:t=pio&colon;	!	!LO:MO:null:mod=p	!	!LO:DY:a:t=p&colon;	!	!LO:MO:null:mod=p	!	!	!	!	!	!	!	!	!	!	!	!	!	!	!	!	!	!
4AA/	.	p	8c#\L	.	8e/L	p	8cc#\L	.	4AA/	-bis	4d\	-bis	4a\	-bis	4cc#\	-bis	2.r	.	4A/	.	4e\	.	4cc#\	.	4aa\	.
.	.	.	8e\	.	8a/	.	8ee\J	.	.	.	.	.	.	.	.	.	.	.	.	.	.	.	.	.	.	.
4AA/	.	.	8c#\	.	8e/	.	(4.aa\	.	4r	.	4r	.	4r	.	4r	.	.	.	4r	.	4r	.	4r	.	4r	.
.	.	.	8e\	.	8a/	.	.	.	.	.	.	.	.	.	.	.	.	.	.	.	.	.	.	.	.	.
4AA/	.	.	8c#\	.	8e/	.	.	.	4r	.	4r	.	4r	.	4r	.	.	.	4r	.	4r	.	4r	.	4r	.
.	.	.	8e\J	.	8a/J	.	8ggn\)	.	.	.	.	.	.	.	.	.	.	.	.	.	.	.	.	.	.	.
!!LO:MO:ori
=17	=17	=17	=17	=17	=17	=17	=17	=17	=17	=17	=17	=17	=17	=17	=17	=17	=17	=17	=17	=17	=17	=17	=17	=17	=17	=17
*	*	*	*tremolo	*	*tremolo	*	*	*	*	*	*	*	*	*	*	*	*	*	*	*	*	*	*	*	*	*
*	*	*	*2\right	*	*	*	*	*	*	*	*	*	*	*	*	*	*	*	*	*	*	*	*	*	*	*
!LO:TX:a:t=P:problem=nadmiarowy takt w vla	!	!	!LO:TX:a:t=P:problem=nadmiarowy takt	!	!LO:TX:a:t=P:problem=nadmiarowy takt w vla	!	!LO:TX:a:t=P:problem=nadmiarowy takt w vla	!	!LO:TX:a:t=P:problem=nadmiarowy takt w vla	!	!LO:TX:a:t=P:problem=nadmiarowy takt w vla	!	!LO:TX:a:t=P:problem=nadmiarowy takt w vla	!	!LO:TX:a:t=P:problem=nadmiarowy takt w vla	!	!LO:TX:a:t=P:problem=nadmiarowy takt w vla	!	!LO:TX:a:t=P:problem=nadmiarowy takt w vla	!	!LO:TX:a:t=P:problem=nadmiarowy takt w vla	!	!LO:TX:a:t=P:problem=nadmiarowy takt w vla	!	!LO:TX:a:t=P:problem=nadmiarowy takt w vla	!
2.ryy	.	.	8d\L	.	2.ryy	.	2.ryy	.	2.ryy	.	2.ryy	.	2.ryy	.	2.ryy	.	2.ryy	.	2.ryy	.	2.ryy	.	2.ryy	.	2.ryy	.
.	.	.	8f#\	.	.	.	.	.	.	.	.	.	.	.	.	.	.	.	.	.	.	.	.	.	.	.
.	.	.	8d\	.	.	.	.	.	.	.	.	.	.	.	.	.	.	.	.	.	.	.	.	.	.	.
.	.	.	8f#\	.	.	.	.	.	.	.	.	.	.	.	.	.	.	.	.	.	.	.	.	.	.	.
.	.	.	8d\	.	.	.	.	.	.	.	.	.	.	.	.	.	.	.	.	.	.	.	.	.	.	.
.	.	.	8f#\J	.	.	.	.	.	.	.	.	.	.	.	.	.	.	.	.	.	.	.	.	.	.	.
*	*	*	*Xtremolo	*	*	*	*	*	*	*	*	*	*	*	*	*	*	*	*	*	*	*	*	*	*	*
!	!	!	!LO:LB:g=original	!	!	!	!	!	!	!	!	!	!	!	!	!	!	!	!	!	!	!	!	!	!	!
!!LO:MO:end
=18	=18	=18	=18	=18	=18	=18	=18	=18	=18	=18	=18	=18	=18	=18	=18	=18	=18	=18	=18	=18	=18	=18	=18	=18	=18	=18
*	*	*	*	*	*tremolo	*	*	*	*	*	*	*	*	*	*	*	*	*	*	*	*	*	*	*	*	*
4AA/	6_ 4_	.	8d\L	.	8f#/L	.	8gg\L	.	1.r	.	0.r	.	0.r	.	1.r	.	2.r	.	0.r	.	0.r	.	1.r	.	1.r	.
.	.	.	8f#\	.	8a/	.	8ff#\J	.	.	.	.	.	.	.	.	.	.	.	.	.	.	.	.	.	.	.
4AA/	.	.	8d\	.	8f#/	.	(4.ff#\	.	.	.	.	.	.	.	.	.	.	.	.	.	.	.	.	.	.	.
.	.	.	8f#\	.	8a/	.	.	.	.	.	.	.	.	.	.	.	.	.	.	.	.	.	.	.	.	.
4AA/	.	.	8d\	.	8f#/	.	.	.	.	.	.	.	.	.	.	.	.	.	.	.	.	.	.	.	.	.
.	.	.	8f#\J	.	8a/J	.	16ee\LL)	.	.	.	.	.	.	.	.	.	.	.	.	.	.	.	.	.	.	.
.	.	.	.	.	.	.	16dd\JJ	.	.	.	.	.	.	.	.	.	.	.	.	.	.	.	.	.	.	.
*	*	*	*	*	*Xtremolo	*	*	*	*	*	*	*	*	*	*	*	*	*	*	*	*	*	*	*	*	*
!	!	!	!	!	!	!	!LO:PB:g=original	!	!	!	!	!	!	!	!	!	!	!	!	!	!	!	!	!	!	!
=19	=19	=19	=19	=19	=19	=19	=19	=19	=19	=19	=19	=19	=19	=19	=19	=19	=19	=19	=19	=19	=19	=19	=19	=19	=19	=19
*	*	*	*tremolo	*	*	*	*	*	*	*	*	*	*	*	*	*	*	*	*	*	*	*	*	*	*	*
4AA/	5 3	.	8c#\L	.	8e/L	.	8dd\L	.	.	.	.	.	.	.	.	.	2.r	.	.	.	.	.	.	.	.	.
.	.	.	8e\	.	8a/	.	8cc#\J	.	.	.	.	.	.	.	.	.	.	.	.	.	.	.	.	.	.	.
4AA/	.	.	8c#\	.	8e/	.	4cc#\	.	.	.	.	.	.	.	.	.	.	.	.	.	.	.	.	.	.	.
.	.	.	8e\	.	8a/	.	.	.	.	.	.	.	.	.	.	.	.	.	.	.	.	.	.	.	.	.
4r	.	.	8c#\	.	8e/	.	16ee\LL	.	.	.	.	.	.	.	.	.	.	.	.	.	.	.	.	.	.	.
.	.	.	.	.	.	.	16cc#\	.	.	.	.	.	.	.	.	.	.	.	.	.	.	.	.	.	.	.
.	.	.	8e\J	.	8c#/J	.	16b\	.	.	.	.	.	.	.	.	.	.	.	.	.	.	.	.	.	.	.
.	.	.	.	.	.	.	16a\JJ	.	.	.	.	.	.	.	.	.	.	.	.	.	.	.	.	.	.	.
*	*	*	*Xtremolo	*	*	*	*	*	*	*	*	*	*	*	*	*	*	*	*	*	*	*	*	*	*	*
!	!	!	!	!	!LO:LB:g=original	!	!	!	!	!	!	!	!	!	!	!	!	!	!	!	!	!	!	!	!	!
=20	=20	=20	=20	=20	=20	=20	=20	=20	=20	=20	=20	=20	=20	=20	=20	=20	=20	=20	=20	=20	=20	=20	=20	=20	=20	=20
4D\	6	.	8B/L	.	8d/L	.	8b\L	.	2.r	.	.	.	.	.	2.r	.	2.r	.	.	.	.	.	2.r	.	2.r	.
.	.	.	8d/	.	8f#/J	.	16dd\L	.	.	.	.	.	.	.	.	.	.	.	.	.	.	.	.	.	.	.
.	.	.	.	.	.	.	16b\JJ	.	.	.	.	.	.	.	.	.	.	.	.	.	.	.	.	.	.	.
4E\	4	.	8c#/	.	8e/L	.	4a/	.	.	.	.	.	.	.	.	.	.	.	.	.	.	.	.	.	.	.
.	.	.	8A/	.	8c#/	.	.	.	.	.	.	.	.	.	.	.	.	.	.	.	.	.	.	.	.	.
4EE/	#	.	8B/	.	8d/	.	4b/	.	.	.	.	.	.	.	.	.	.	.	.	.	.	.	.	.	.	.
.	.	.	8G#X/J	.	8B/J	.	.	.	.	.	.	.	.	.	.	.	.	.	.	.	.	.	.	.	.	.
=21	=21	=21	=21	=21	=21	=21	=21	=21	=21	=21	=21	=21	=21	=21	=21	=21	=21	=21	=21	=21	=21	=21	=21	=21	=21	=21
!	!	!	!	!LO:DY:a:t=p&colon;	!	!	!	!LO:DY:a:t=p&colon;	!LO:TX:a:i:rj:t=Solo&colon;:mod=Solo	!	!	!	!	!	!LO:TX:a:i:t=Solo&colon;:mod=Solo	!	!	!	!	!	!	!	!LO:TX:a:i:t=Solo&colon;:mod=Solo	!	!LO:TX:a:i:t=Solo&colon;:mod=Solo	!
!	!	!	!	!LO:MO:null:mod=.	!	!	!	!LO:MO:null:mod=.	!	!	!	!	!	!	!	!	!	!	!	!	!	!	!	!	!	!
4AA/	.	.	4E/	p	4c#/	.	8a/L	p	2.A\	A-	.	.	.	.	2.cc#\	A-	2.r	.	.	.	.	.	2.a/	.	2.cc#\	.
.	.	.	.	.	.	.	8e/J	.	.	.	.	.	.	.	.	.	.	.	.	.	.	.	.	.	.	.
4AA/	.	.	4E/	.	8r	.	8r	.	.	.	.	.	.	.	.	.	.	.	.	.	.	.	.	.	.	.
.	.	.	.	.	8c#/L	.	8e/L	.	.	.	.	.	.	.	.	.	.	.	.	.	.	.	.	.	.	.
4r	.	.	4r	.	8B/	.	8d/	.	.	.	.	.	.	.	.	.	.	.	.	.	.	.	.	.	.	.
.	.	.	.	.	8A/J	.	8c#/J	.	.	.	.	.	.	.	.	.	.	.	.	.	.	.	.	.	.	.
!LO:LB:g=original	!	!	!	!	!	!	!	!	!	!	!	!	!	!	!	!	!	!	!	!	!	!	!	!	!	!
=22	=22	=22	=22	=22	=22	=22	=22	=22	=22	=22	=22	=22	=22	=22	=22	=22	=22	=22	=22	=22	=22	=22	=22	=22	=22	=22
4E\	#_	.	4E/	.	8G#X/L	.	8B/L	.	2.B\	-gnus	0.r	.	0.r	.	2.dd\	-gnus	2.r	.	0.r	.	0.r	.	2.b\	.	2.dd\	.
.	.	.	.	.	8B/J	.	8d/J	.	.	.	.	.	.	.	.	.	.	.	.	.	.	.	.	.	.	.
4E\	.	.	4E/	.	8r	.	8r	.	.	.	.	.	.	.	.	.	.	.	.	.	.	.	.	.	.	.
.	X	.	.	.	8B/L	.	8d/L	.	.	.	.	.	.	.	.	.	.	.	.	.	.	.	.	.	.	.
4r	.	.	4r	.	8A/	.	8c#/	.	.	.	.	.	.	.	.	.	.	.	.	.	.	.	.	.	.	.
.	.	.	.	.	8G#/J	.	8B/J	.	.	.	.	.	.	.	.	.	.	.	.	.	.	.	.	.	.	.
!	!	!	!LO:PB:g=original	!	!	!	!	!	!	!	!	!	!	!	!	!	!	!	!	!	!	!	!	!	!	!
=23	=23	=23	=23	=23	=23	=23	=23	=23	=23	=23	=23	=23	=23	=23	=23	=23	=23	=23	=23	=23	=23	=23	=23	=23	=23	=23
4A\	.	.	4E/	.	8A/L	.	8c#/L	.	2c#\	De-	.	.	.	.	2ee\	De-	2.r	.	.	.	.	.	2cc#\	.	2ee\	.
.	.	.	.	.	8c#/J	.	8e/J	.	.	.	.	.	.	.	.	.	.	.	.	.	.	.	.	.	.	.
4A\	.	.	4E/	.	8r	.	8r	.	.	.	.	.	.	.	.	.	.	.	.	.	.	.	.	.	.	.
.	.	.	.	.	8c#/L	.	8e/L	.	.	.	.	.	.	.	.	.	.	.	.	.	.	.	.	.	.	.
!	!	!	!	!	!	!	!	!	!LO:LB:g=original	!	!	!	!	!	!	!	!	!	!	!	!	!	!	!	!	!
4A\	.	.	4E/	.	8A/	.	8c#/	.	8A\	-i	.	.	.	.	8cc#\	-i	.	.	.	.	.	.	8a\L	.	8cc#\L	.
.	.	.	.	.	8c#/J	.	8e/J	.	8c#\	qvi	.	.	.	.	8ee\	qvi	.	.	.	.	.	.	8cc#\J	.	8ee\J	.
!	!	!	!	!	!	!	!LO:LB:g=original	!	!	!	!	!	!	!	!	!	!	!	!	!	!	!	!	!	!	!
=24	=24	=24	=24	=24	=24	=24	=24	=24	=24	=24	=24	=24	=24	=24	=24	=24	=24	=24	=24	=24	=24	=24	=24	=24	=24	=24
4E\	#	.	4E/	.	8.B/L	.	8.d/L	.	4B\	tol-	.	.	.	.	4dd\	tol-	2.r	.	.	.	.	.	4b/	.	4dd\	.
.	.	.	.	.	16G#X/Jk	.	16B/Jk	.	.	.	.	.	.	.	.	.	.	.	.	.	.	.	.	.	.	.
4AA/	.	.	4E/	.	8A/L	.	8c#/L	.	4A\	-lis	.	.	.	.	4cc#\	-lis	.	.	.	.	.	.	4a/	.	4cc#\	.
.	.	.	.	.	16c#/L	.	16e/L	.	.	.	.	.	.	.	.	.	.	.	.	.	.	.	.	.	.	.
.	.	.	.	.	16B/JJ	.	16d/JJ	.	.	.	.	.	.	.	.	.	.	.	.	.	.	.	.	.	.	.
4r	.	.	4r	.	8A/L	.	8c#/L	.	8r	.	.	.	.	.	8r	.	.	.	.	.	.	.	8r	.	8r	.
*	*	*	*	*	*	*	*	*	*	*ij	*	*	*	*	*	*ij	*	*	*	*	*	*	*	*	*	*
.	.	.	.	.	8A/J	.	8c#/J	.	8A\	qvi	.	.	.	.	8cc#\	qvi	.	.	.	.	.	.	8a/	.	8cc#\	.
!	!	!	!	!	!LO:LB:g=original	!	!	!	!	!	!	!	!	!	!	!	!	!	!	!	!	!	!	!	!	!
=25	=25	=25	=25	=25	=25	=25	=25	=25	=25	=25	=25	=25	=25	=25	=25	=25	=25	=25	=25	=25	=25	=25	=25	=25	=25	=25
4E\	#_	.	4E/	.	4.G#X/	.	4.B/	.	8.B\L	tol-	.	.	.	.	8.dd\L	tol-	2.r	.	.	.	.	.	8.b/L	.	8.dd\L	.
.	.	.	.	.	.	.	.	.	16A\Jk	.	.	.	.	.	16cc#\Jk	.	.	.	.	.	.	.	16a/Jk	.	16cc#\Jk	.
4E\	.	.	4E/	.	.	.	.	.	4G#X\	-lis	.	.	.	.	4b\	-lis	.	.	.	.	.	.	4g#X/	.	4b\	.
*	*	*	*	*	*	*	*	*	*	*	*	*	*	*	*	*Xij	*	*	*	*	*	*	*	*	*	*
.	X	.	.	.	16B/LL	.	16d/LL	.	.	.	.	.	.	.	.	.	.	.	.	.	.	.	.	.	.	.
.	.	.	.	.	16A/JJ	.	16c#/JJ	.	.	.	.	.	.	.	.	.	.	.	.	.	.	.	.	.	.	.
!	!	!	!	!	!	!	!	!	!	!	!	!	!	!	!LO:LB:g=original	!	!	!	!	!	!	!	!	!	!	!
4r	.	.	4r	.	8G#/L	.	8B/L	.	8r	.	.	.	.	.	8r	.	.	.	.	.	.	.	8r	.	8r	.
.	.	.	.	.	8G#/J	.	8B/J	.	8G#\	qvi	.	.	.	.	8b\	qvi	.	.	.	.	.	.	8g#/	.	8b\	.
!	!	!	!	!	!	!	!	!	!	!	!	!	!	!	!	!	!	!	!	!	!	!	!LO:LB:g=original	!	!	!
=26	=26	=26	=26	=26	=26	=26	=26	=26	=26	=26	=26	=26	=26	=26	=26	=26	=26	=26	=26	=26	=26	=26	=26	=26	=26	=26
4AA/	.	.	4E/	.	4.A/	.	4.c#/	.	8.c#\L	tol-	1.r	.	1.r	.	8.ee\L	tol-	2.r	.	1.r	.	1.r	.	8.cc#\L	.	8.ee\L	.
.	.	.	.	.	.	.	.	.	16B\Jk	.	.	.	.	.	16dd\Jk	.	.	.	.	.	.	.	16b\Jk	.	16dd\Jk	.
4AA/	.	.	4E/	.	.	.	.	.	4A\	-lis	.	.	.	.	4cc#\	-lis	.	.	.	.	.	.	4a/	.	4cc#\	.
*	*	*	*	*	*	*	*	*	*	*Xij	*	*	*	*	*	*	*	*	*	*	*	*	*	*	*	*
.	.	.	.	.	16c#/LL	.	16e/LL	.	.	.	.	.	.	.	.	.	.	.	.	.	.	.	.	.	.	.
.	.	.	.	.	16B/JJ	.	16d/JJ	.	.	.	.	.	.	.	.	.	.	.	.	.	.	.	.	.	.	.
4r	.	.	4r	.	8A/L	.	8c#/L	.	8r	.	.	.	.	.	8r	.	.	.	.	.	.	.	8r	.	8r	.
.	.	.	.	.	8A/J	.	8c#/J	.	8A\	pec-	.	.	.	.	8cc#\	pec-	.	.	.	.	.	.	8a/	.	8cc#\	.
!	!	!	!	!	!	!	!	!	!	!	!	!	!	!	!	!	!	!	!	!	!	!	!	!	!LO:LB:g=original	!
=27	=27	=27	=27	=27	=27	=27	=27	=27	=27	=27	=27	=27	=27	=27	=27	=27	=27	=27	=27	=27	=27	=27	=27	=27	=27	=27
4D\	6_	.	4F#/	.	8B/L	.	8c#/L	.	2B\	-ca-	.	.	.	.	2dd\	-ca-	2.r	.	.	.	.	.	2b/	.	2dd\	.
.	.	.	.	.	16d/L	.	16f#/L	.	.	.	.	.	.	.	.	.	.	.	.	.	.	.	.	.	.	.
.	.	.	.	.	16c#/JJ	.	16e/JJ	.	.	.	.	.	.	.	.	.	.	.	.	.	.	.	.	.	.	.
4D\	.	.	4F#/	.	8B/L	.	8d/L	.	.	.	.	.	.	.	.	.	.	.	.	.	.	.	.	.	.	.
.	.	.	.	.	8B/	.	8d/	.	.	.	.	.	.	.	.	.	.	.	.	.	.	.	.	.	.	.
4D#X\	5	.	4F#/	.	8A/	.	8c#/	.	4A\	-ta	.	.	.	.	4cc#\	-ta	.	.	.	.	.	.	4a/	.	4cc#\	.
.	.	.	.	.	8A/J	.	8c#/J	.	.	.	.	.	.	.	.	.	.	.	.	.	.	.	.	.	.	.
!	!	!	!	!	!	!	!	!	!LO:LB:g=original	!	!	!	!	!	!	!	!	!	!	!	!	!	!	!	!	!
=28	=28	=28	=28	=28	=28	=28	=28	=28	=28	=28	=28	=28	=28	=28	=28	=28	=28	=28	=28	=28	=28	=28	=28	=28	=28	=28
4E\	4	.	4E/	.	8A/L	.	8c#/L	.	4A\	mun-	2.r	.	2.r	.	4cc#\	mun-	2.r	.	2.r	.	2.r	.	4a/	.	4cc#\	.
.	.	.	.	.	16G#X/L	.	16B/L	.	.	.	.	.	.	.	.	.	.	.	.	.	.	.	.	.	.	.
!	!	!	!	!	!	!LO:DY:a:t=f&colon;	!	!	!	!	!	!	!	!	!	!	!	!	!	!	!	!	!	!	!	!
!	!	!	!	!	!	!LO:MO:null:mod=.	!	!	!	!	!	!	!	!	!	!	!	!	!	!	!	!	!	!	!	!
.	.	.	.	.	16A/JJ	f	16c#/JJ	.	.	.	.	.	.	.	.	.	.	.	.	.	.	.	.	.	.	.
!	!	!	!	!	!	!	!	!LO:DY:a:t=fz	!	!	!	!	!	!	!	!	!	!	!	!	!	!	!	!	!	!
!	!	!	!	!	!	!	!	!LO:MO:null:mod=.	!	!	!	!	!	!	!	!	!	!	!	!	!	!	!	!	!	!
4EE/	#	.	4E/	.	16G#/LL	.	16B/LL	f	4G#X\	-di	.	.	.	.	4b\	-di	.	.	.	.	.	.	4g#X/	.	4b\	.
!	!	!	!	!	!	!LO:MO:null:mod=f	!	!LO:MO:null:mod=f	!	!	!	!	!	!	!	!	!	!	!	!	!	!	!	!	!	!
.	.	.	.	.	16g#X/	.	16g#X/	.	.	.	.	.	.	.	.	.	.	.	.	.	.	.	.	.	.	.
.	.	.	.	.	16a/	.	16a/	.	.	.	.	.	.	.	.	.	.	.	.	.	.	.	.	.	.	.
.	.	.	.	.	16b/JJ	.	16b/JJ	.	.	.	.	.	.	.	.	.	.	.	.	.	.	.	.	.	.	.
!LO:TX:a:i:t=tutti:mod=	!	!	!	!	!	!	!	!	!	!	!	!	!	!	!	!	!	!	!	!	!	!	!	!	!	!
4r	.	.	4r	.	16cc#\LL	.	16cc#\LL	.	4r	.	.	.	.	.	4r	.	.	.	.	.	.	.	4r	.	4r	.
.	.	.	.	.	16dd\	.	16dd\	.	.	.	.	.	.	.	.	.	.	.	.	.	.	.	.	.	.	.
.	.	.	.	.	16ee\	.	16ee\	.	.	.	.	.	.	.	.	.	.	.	.	.	.	.	.	.	.	.
!	!	!	!	!	!LO:TX:b:i:t=Verte:mod=	!	!	!	!	!	!LO:TX:b:i:t=Verte:mod=	!	!LO:TX:b:i:t=Verte:mod=	!	!	!	!	!	!	!	!	!	!	!	!	!
.	.	.	.	.	16ff#\JJ	.	16ff#\JJ	.	.	.	.	.	.	.	.	.	.	.	.	.	.	.	.	.	.	.
!	!	!	!	!	!LO:PB:g=original	!	!LO:LB:g=original	!	!	!	!LO:PB:g=original	!	!LO:PB:g=original	!	!	!	!	!	!	!	!	!	!	!	!	!
=29	=29	=29	=29	=29	=29	=29	=29	=29	=29	=29	=29	=29	=29	=29	=29	=29	=29	=29	=29	=29	=29	=29	=29	=29	=29	=29
!	!	!LO:MO:null:mod=!LO&colon;DY&colon;ed=brack	!	!	!	!	!	!	!	!	!	!	!	!	!	!	!	!	!	!LO:MO:null:mod=!LO&colon;DY&colon;ed=brack	!	!LO:MO:null:mod=!LO&colon;DY&colon;ed=brack	!	!	!	!
!	!	!	!	!	!	!	!	!	!LO:MO:null:mod=!LO&colon;TX&colon;i&colon;t=Tutti	!	!	!	!	!	!LO:MO:null:mod=!LO&colon;TX&colon;i&colon;t=Tutti	!	!	!	!	!	!	!	!	!	!	!
!	!	!LO:MO:null:mod=f	!	!LO:DY:a:t=for	!	!	!LO:SIC:o=8.gg#X\L	!	!	!	!	!	!LO:SIC:v:o=2g\	!	!	!	!	!	!	!LO:MO:null:mod=f	!	!LO:MO:null:mod=f	!	!LO:DY:a:t=f&colon;	!	!LO:DY:a:rj:t=f&colon;
4E\	#_	.	16B\LL	f	(8.gg#X\L	.	(8.gg#L	.	2E\	mi-	2B\	mi-	2g#	mi-	2ee\	mi-	2.r	.	2.e\	.	2.e\	.	2.ee\	f	2.gg#X\	f
.	.	.	16e\	.	.	.	.	.	.	.	.	.	.	.	.	.	.	.	.	.	.	.	.	.	.	.
.	.	.	16B\	.	.	.	.	.	.	.	.	.	.	.	.	.	.	.	.	.	.	.	.	.	.	.
!	!	!	!	!	!	!	!LO:SIC:o=16aa\Jk	!	!	!	!	!	!	!	!	!	!	!	!	!	!	!	!	!	!	!
.	.	.	16e\JJ	.	16aa\Jk)	.	16aaJk)	.	.	.	.	.	.	.	.	.	.	.	.	.	.	.	.	.	.	.
!	!	!	!	!	!LO:SIC:o=8gg#\L	!	!LO:SIC:o=8gg#\L	!	!	!	!	!	!	!	!	!	!	!	!	!	!	!	!	!	!	!
4E\	.	.	16B\LL	.	8gg#L|	.	8gg#L|	.	.	.	.	.	.	.	.	.	.	.	.	.	.	.	.	.	.	.
.	.	.	16e\	.	.	.	.	.	.	.	.	.	.	.	.	.	.	.	.	.	.	.	.	.	.	.
!	!	!	!	!	!LO:SIC:o=8gg#\J	!	!LO:SIC:o=8gg#\J	!	!	!	!	!	!	!	!	!	!	!	!	!	!	!	!	!	!	!
.	.	.	16B\	.	8gg#J|	.	8gg#J|	.	.	.	.	.	.	.	.	.	.	.	.	.	.	.	.	.	.	.
.	X	.	16e\JJ	.	.	.	.	.	.	.	.	.	.	.	.	.	.	.	.	.	.	.	.	.	.	.
!	!	!	!	!	!	!	!	!	!	!	!	!	!LO:SIC:v:o=4g\	!	!	!	!	!	!	!	!	!	!	!	!	!
4Dn\	.	.	16B\LL	.	16gg#\LL	.	16gg#\LL	.	4Dn\	-ſe-	4B\	-ſe-	4g#¬	-ſe-	4ee\	-ſe-	.	.	.	.	.	.	.	.	.	.
.	.	.	16e\	.	16ee\	.	16ee\	.	.	.	.	.	.	.	.	.	.	.	.	.	.	.	.	.	.	.
.	.	.	16B\	.	16ff#\	.	16ff#\	.	.	.	.	.	.	.	.	.	.	.	.	.	.	.	.	.	.	.
.	.	.	16e\JJ	.	16gg#\JJ	.	16gg#\JJ	.	.	.	.	.	.	.	.	.	.	.	.	.	.	.	.	.	.	.
!LO:LB:g=original	!	!	!LO:LB:g=original	!	!	!	!	!	!	!	!	!	!	!	!	!	!	!	!	!	!	!	!	!	!	!
=30	=30	=30	=30	=30	=30	=30	=30	=30	=30	=30	=30	=30	=30	=30	=30	=30	=30	=30	=30	=30	=30	=30	=30	=30	=30	=30
!	!	!	!	!	!	!	!LO:SIC:o=8.aa\L	!	!	!	!	!	!	!	!	!	!	!	!	!	!	!	!	!	!	!
4C#/	6	.	16e\LL	.	(8.aa\L	.	(8.aaL	.	4C#/	-re-	4c#\	-re-	4a\	-re-	4ee\	-re-	2.r	.	4A/	.	4e\	.	4ee\	.	4aa\	.
.	.	.	16f#\	.	.	.	.	.	.	.	.	.	.	.	.	.	.	.	.	.	.	.	.	.	.	.
.	.	.	16e\	.	.	.	.	.	.	.	.	.	.	.	.	.	.	.	.	.	.	.	.	.	.	.
!	!	!	!	!	!	!	!LO:SIC:o=16bb\Jk	!	!	!	!	!	!	!	!	!	!	!	!	!	!	!	!	!	!	!
.	.	.	16d\JJ	.	16bb\Jk)	.	16bbJk)	.	.	.	.	.	.	.	.	.	.	.	.	.	.	.	.	.	.	.
!	!	!	!	!	!	!	!LO:SIC:o=8aa\L	!	!	!	!	!	!	!	!	!	!	!	!	!	!	!	!	!	!	!
4C#/	.	.	4e\	.	8aa\L|	.	8aaL|	.	4C#/	-re	4c#\	-re	4a\	-re	4ee\	-re	.	.	4A/	.	4e\	.	4ee\	.	4aa\	.
.	.	.	.	.	(16gg\L	.	16gg\L	.	.	.	.	.	.	.	.	.	.	.	.	.	.	.	.	.	.	.
.	.	.	.	.	16aa\JJ)	.	16aa\JJ	.	.	.	.	.	.	.	.	.	.	.	.	.	.	.	.	.	.	.
4r	.	.	4r	.	16bb\LL	.	16bb\LL	.	4r	.	4r	.	4r	.	4r	.	.	.	4r	.	4r	.	4r	.	4r	.
.	.	.	.	.	16aa\	.	16aa\	.	.	.	.	.	.	.	.	.	.	.	.	.	.	.	.	.	.	.
.	.	.	.	.	16aa\	.	16aa\	.	.	.	.	.	.	.	.	.	.	.	.	.	.	.	.	.	.	.
.	.	.	.	.	16ggn\JJ	.	16ggn\JJ	.	.	.	.	.	.	.	.	.	.	.	.	.	.	.	.	.	.	.
=31	=31	=31	=31	=31	=31	=31	=31	=31	=31	=31	=31	=31	=31	=31	=31	=31	=31	=31	=31	=31	=31	=31	=31	=31	=31	=31
*	*	*	*	*	*	*	*	*	*	*ij	*	*	*	*ij	*	*ij	*	*	*	*	*	*	*	*	*	*
!	!	!	!	!	!	!	!LO:SIC:o=8.ff#\L	!	!	!	!	!	!	!	!	!	!	!	!	!	!	!	!	!	!	!
4D/	3_	.	16A\LL	.	(8.ff#\L	.	(8.ff#L	.	2D/	mi-	2A\	mi-	2f#\	mi-	2dd\	mi-	2.r	.	2.D/	.	2.d\	.	2.dd\	.	2.ff#\	.
.	.	.	16d\	.	.	.	.	.	.	.	.	.	.	.	.	.	.	.	.	.	.	.	.	.	.	.
.	.	.	16A\	.	.	.	.	.	.	.	.	.	.	.	.	.	.	.	.	.	.	.	.	.	.	.
!	!	!	!	!	!	!	!LO:SIC:o=16gg\Jk	!	!	!	!	!	!	!	!	!	!	!	!	!	!	!	!	!	!	!
.	.	.	16d\JJ	.	16gg\Jk)	.	16ggJk)	.	.	.	.	.	.	.	.	.	.	.	.	.	.	.	.	.	.	.
!	!	!	!	!	!	!	!LO:SIC:o=8ff#\L	!	!	!	!	!	!	!	!	!	!	!	!	!	!	!	!	!	!	!
4D/	.	.	16A\LL	.	8ff#\L|	.	8ff#\L|	.	.	.	.	.	.	.	.	.	.	.	.	.	.	.	.	.	.	.
.	.	.	16d\	.	.	.	.	.	.	.	.	.	.	.	.	.	.	.	.	.	.	.	.	.	.	.
!	!	!	!	!	!	!	!LO:SIC:o=8ff#\J	!	!	!	!	!	!	!	!	!	!	!	!	!	!	!	!	!	!	!
.	.	.	16A\	.	8ff#\J|	.	8ff#\J|	.	.	.	.	.	.	.	.	.	.	.	.	.	.	.	.	.	.	.
.	.	.	16d\JJ	.	.	.	.	.	.	.	.	.	.	.	.	.	.	.	.	.	.	.	.	.	.	.
4Cn/	.	.	16A\LL	.	16ff#\LL	.	16ff#\LL	.	4Cn/	-ſe-	4A\	-ſe-	4f#\	-ſe-	4dd\	-ſe-	.	.	.	.	.	.	.	.	.	.
.	.	.	16d\	.	16dd\	.	16dd\	.	.	.	.	.	.	.	.	.	.	.	.	.	.	.	.	.	.	.
.	.	.	16A\	.	16ee\	.	16ee\	.	.	.	.	.	.	.	.	.	.	.	.	.	.	.	.	.	.	.
.	.	.	16d\JJ	.	16ff#\JJ	.	16ff#\JJ	.	.	.	.	.	.	.	.	.	.	.	.	.	.	.	.	.	.	.
=32	=32	=32	=32	=32	=32	=32	=32	=32	=32	=32	=32	=32	=32	=32	=32	=32	=32	=32	=32	=32	=32	=32	=32	=32	=32	=32
!	!	!	!	!	!	!	!LO:SIC:o=8.gg\L	!	!	!	!	!	!	!	!	!	!	!	!	!	!	!	!	!	!	!
4BB/	6_	.	16d\LL	.	(8.gg\L	.	(8.ggL	.	4BB/	-re-	4B\	-re-	4gn\	-re-	4dd\	-re-	2.r	.	4D/	.	4d\	.	4dd\	.	4ggn\	.
.	.	.	16e\	.	.	.	.	.	.	.	.	.	.	.	.	.	.	.	.	.	.	.	.	.	.	.
.	.	.	16d\	.	.	.	.	.	.	.	.	.	.	.	.	.	.	.	.	.	.	.	.	.	.	.
!	!	!	!	!	!	!	!LO:SIC:o=16aa\Jk	!	!	!	!	!	!	!	!	!	!	!	!	!	!	!	!	!	!	!
.	.	.	16c#\JJ	.	16aa\Jk)	.	16aaJk)	.	.	.	.	.	.	.	.	.	.	.	.	.	.	.	.	.	.	.
!	!	!	!	!	!	!	!LO:SIC:o=8gg\L	!	!	!	!	!	!	!	!	!	!	!	!	!	!	!	!	!	!	!
4BB/	.	.	4d\	.	8gg\L|	.	8ggL|	.	4BB/	-re	4B\	-re	4g\	-re	4dd\	-re	.	.	4D/	.	4d\	.	4dd\	.	4gg\	.
*	*	*	*	*	*	*	*	*	*	*Xij	*	*	*	*	*	*Xij	*	*	*	*	*	*	*	*	*	*
.	X	.	.	.	(16ff#\L	.	16ff#\L	.	.	.	.	.	.	.	.	.	.	.	.	.	.	.	.	.	.	.
.	.	.	.	.	16gg\JJ)	.	16gg\JJ	.	.	.	.	.	.	.	.	.	.	.	.	.	.	.	.	.	.	.
!	!	!	!	!	!LO:LB:g=original	!	!	!	!	!	!	!	!	!	!	!	!	!	!	!	!	!	!	!	!	!
4r	.	.	4r	.	16aa\LL	.	16aa\LL	.	4r	.	4r	.	4r	.	4r	.	.	.	4r	.	4r	.	4r	.	4r	.
.	.	.	.	.	16gg\	.	16gg\	.	.	.	.	.	.	.	.	.	.	.	.	.	.	.	.	.	.	.
.	.	.	.	.	16gg\	.	16gg\	.	.	.	.	.	.	.	.	.	.	.	.	.	.	.	.	.	.	.
.	.	.	.	.	16ff#\JJ	.	16ff#\JJ	.	.	.	.	.	.	.	.	.	.	.	.	.	.	.	.	.	.	.
!	!	!	!	!	!	!	!LO:LB:g=original	!	!	!	!	!	!	!	!LO:LB:g=original	!	!	!	!	!	!	!	!LO:LB:g=original	!	!	!
=33	=33	=33	=33	=33	=33	=33	=33	=33	=33	=33	=33	=33	=33	=33	=33	=33	=33	=33	=33	=33	=33	=33	=33	=33	=33	=33
*	*	*	*	*	*	*	*	*	*	*	*	*ij	*	*	*	*	*	*	*	*	*	*	*	*	*	*
8BB/L	6_	.	16B\LL	.	16gg\LL	.	16gg\LL	.	2B\	mi-	2B\	mi-	2g\	mi-	2dd\	mi-	2.r	.	2.r	.	2.r	.	2dd\	.	2.gg\	.
.	.	.	16d\	.	16aa\	.	16aa\	.	.	.	.	.	.	.	.	.	.	.	.	.	.	.	.	.	.	.
8BB/	.	.	16B\	.	16gg\	.	16gg\	.	.	.	.	.	.	.	.	.	.	.	.	.	.	.	.	.	.	.
.	.	.	16d\JJ	.	16ff#\JJ	.	16ff#\JJ	.	.	.	.	.	.	.	.	.	.	.	.	.	.	.	.	.	.	.
8BB/	.	.	16B\LL	.	8gg\L	.	8gg\L	.	.	.	.	.	.	.	.	.	.	.	.	.	.	.	.	.	.	.
.	.	.	16d\	.	.	.	.	.	.	.	.	.	.	.	.	.	.	.	.	.	.	.	.	.	.	.
8BB/	.	.	16B\	.	8gg\J	.	8gg\J	.	.	.	.	.	.	.	.	.	.	.	.	.	.	.	.	.	.	.
.	.	.	16d\JJ	.	.	.	.	.	.	.	.	.	.	.	.	.	.	.	.	.	.	.	.	.	.	.
!	!	!	!	!	!	!	!LO:SIC:o=8.aa\L	!	!	!	!	!	!	!	!	!	!	!	!	!	!	!	!	!	!	!
8C#X/	6 5	.	16A\LL	.	(8.aa\L	.	(8.aaL	.	4c#X\	-ſe-	4A\	-ſe-	4g\	-ſe-	4ee\	-ſe-	.	.	.	.	.	.	4ee\	.	.	.
.	.	.	16e\	.	.	.	.	.	.	.	.	.	.	.	.	.	.	.	.	.	.	.	.	.	.	.
8C#/J	.	.	16A\	.	.	.	.	.	.	.	.	.	.	.	.	.	.	.	.	.	.	.	.	.	.	.
!	!	!	!	!	!	!	!LO:SIC:o=16gg\Jk	!	!	!	!	!	!	!	!	!	!	!	!	!	!	!	!	!	!	!
.	.	.	16e\JJ	.	16gg\Jk)	.	16ggJk)	.	.	.	.	.	.	.	.	.	.	.	.	.	.	.	.	.	.	.
!	!	!	!	!	!	!	!	!	!LO:LB:g=original	!	!	!	!	!	!	!	!	!	!	!	!	!	!	!	!	!
=34	=34	=34	=34	=34	=34	=34	=34	=34	=34	=34	=34	=34	=34	=34	=34	=34	=34	=34	=34	=34	=34	=34	=34	=34	=34	=34
8D\L	.	.	16A\LL	.	16ff#\LL	.	16ff#\LL	.	2d\	-re-	2A\	-re-	2f#\	-re-	2dd\	-re-	2.r	.	4r	.	4r	.	2.ff#\	.	2.aa\	.
.	.	.	16f#\	.	16ee\	.	16ee\	.	.	.	.	.	.	.	.	.	.	.	.	.	.	.	.	.	.	.
8D\	.	.	16A\	.	16ff#\	.	16ff#\	.	.	.	.	.	.	.	.	.	.	.	.	.	.	.	.	.	.	.
.	.	.	16f#\JJ	.	16gg\JJ	.	16gg\JJ	.	.	.	.	.	.	.	.	.	.	.	.	.	.	.	.	.	.	.
!	!	!	!LO:LB:g=original	!	!	!	!	!	!	!	!	!	!	!	!	!	!	!	!	!	!	!	!	!	!	!
8D\	.	.	16A\LL	.	8aa\L	.	8aa\L	.	.	.	.	.	.	.	.	.	.	.	4d\	.	4f#\	.	.	.	.	.
.	.	.	16f#\	.	.	.	.	.	.	.	.	.	.	.	.	.	.	.	.	.	.	.	.	.	.	.
8D\	.	.	16A\	.	8aa\J	.	8aa\J	.	.	.	.	.	.	.	.	.	.	.	.	.	.	.	.	.	.	.
.	.	.	16f#\JJ	.	.	.	.	.	.	.	.	.	.	.	.	.	.	.	.	.	.	.	.	.	.	.
8F#\	6	.	16A\LL	.	16gg\LL	.	16gg\LL	.	4F#\	-re	4A\	-re	4f#\	-re	4dd\	-re	.	.	4d\	.	4f#\	.	.	.	.	.
*	*	*	*	*	*	*	*	*	*	*	*	*Xij	*	*Xij	*	*	*	*	*	*	*	*	*	*	*	*
.	.	.	16f#\	.	16ff#\	.	16ff#\	.	.	.	.	.	.	.	.	.	.	.	.	.	.	.	.	.	.	.
8F#\J	.	.	16A\	.	16ee\	.	16ee\	.	.	.	.	.	.	.	.	.	.	.	.	.	.	.	.	.	.	.
.	.	.	16f#\JJ	.	16dd\JJ	.	16dd\JJ	.	.	.	.	.	.	.	.	.	.	.	.	.	.	.	.	.	.	.
!	!	!	!	!	!	!	!	!	!	!	!LO:LB:g=original	!	!LO:LB:g=original	!	!	!	!	!	!	!	!	!	!	!	!	!
=35	=35	=35	=35	=35	=35	=35	=35	=35	=35	=35	=35	=35	=35	=35	=35	=35	=35	=35	=35	=35	=35	=35	=35	=35	=35	=35
!LO:TX:a:t=P:problem=mixed beam	!	!	!	!	!	!	!	!	!	!	!	!	!	!	!	!	!	!	!	!	!	!	!	!	!	!
8G\L	6	.	8B/L	.	8b/L	.	16ee\LL	.	4G\	no-	4B\	no-	4g\	no-	4ee\	no-	2.r	.	4e\	.	4g\	.	4ee\	.	4gg\	.
.	.	.	.	.	.	.	16ff#\	.	.	.	.	.	.	.	.	.	.	.	.	.	.	.	.	.	.	.
8G\	.	.	8B/	.	8g/J	.	16gg\	.	.	.	.	.	.	.	.	.	.	.	.	.	.	.	.	.	.	.
.	.	.	.	.	.	.	16ee\JJ	.	.	.	.	.	.	.	.	.	.	.	.	.	.	.	.	.	.	.
!	!	!	!	!	!LO:SIC:v:o=4e/	!	!	!	!	!	!	!	!	!	!	!	!	!	!	!	!	!	!	!	!	!
8A\	4	.	8A/	.	4f#	.	4dd\	.	4A\	.	2A\	.	4f#\	.	4dd\	.	.	.	4d\	.	4f#\	.	4dd\	.	4ff#\	.
8A\	.	.	8A/	.	.	.	.	.	.	.	.	.	.	.	.	.	.	.	.	.	.	.	.	.	.	.
!	!	!	!	!	!LO:SIC:v:o=4d/	!	!	!	!	!	!	!	!	!	!	!	!	!	!	!	!	!	!	!	!	!
8AA/	3	.	8A/	.	4e	.	4cc#\	.	4AA/	.	.	.	4e\	.	4cc#\	.	.	.	4A/	.	4e\	.	4cc#\	.	4ee\	.
!	!	!	!	!	!	!	!	!LO:DY:a:t=p&colon;	!	!	!	!	!	!	!	!	!	!	!	!	!	!	!	!	!	!
8AA/J	.	.	8A/J	.	.	.	.	p	.	.	.	.	.	.	.	.	.	.	.	.	.	.	.	.	.	.
!LO:LB:g=original	!	!	!	!	!	!	!	!	!	!	!	!	!	!	!	!	!	!	!LO:LB:g=original	!	!LO:LB:g=original	!	!	!	!LO:LB:g=original	!
=36	=36	=36	=36	=36	=36	=36	=36	=36	=36	=36	=36	=36	=36	=36	=36	=36	=36	=36	=36	=36	=36	=36	=36	=36	=36	=36
!LO:TX:a:i:t=piziccatto:mod=pizz.	!	!	!LO:TX:a:i:t=pizicatto:mod=pizz.	!	!	!LO:DY:a:t=p&colon;	!	!	!	!	!	!	!	!	!	!	!	!	!	!	!	!	!LO:TX:a:i:rj:t=Solo&colon;	!	!LO:TX:a:i:t=Solo&colon;	!
4D\	.	.	4A/	.	(8d/L	p	8dd/L	.	4D\	-bis	4A\	-bis	4f#\	-bis	4dd\	-bis	2.r	.	4F#/	.	4d\	.	8dd\L	.	8ff#\L	.
.	.	.	.	.	8f#/)	.	8a/	.	.	.	.	.	.	.	.	.	.	.	.	.	.	.	8ff#\J	.	8aa\J	.
4D\	.	.	4F#/	.	(8d/	.	8f#/	.	4r	.	4r	.	4r	.	4r	.	.	.	4r	.	4r	.	(4.ff#\	.	(4.aa\	.
.	.	.	.	.	8f#/)	.	8a/	.	.	.	.	.	.	.	.	.	.	.	.	.	.	.	.	.	.	.
4D\	.	.	4F#/	.	(8d/	.	8f#/	.	4r	.	4r	.	4r	.	4r	.	.	.	4r	.	4r	.	.	.	.	.
.	.	.	.	.	8f#/J)	.	8a/J	.	.	.	.	.	.	.	.	.	.	.	.	.	.	.	16ee\LL)	.	16gg\LL	.
.	.	.	.	.	.	.	.	.	.	.	.	.	.	.	.	.	.	.	.	.	.	.	16dd\JJ	.	16ff#\JJ)	.
!	!	!	!	!	!LO:LB:g=original	!	!	!	!	!	!	!	!	!	!	!	!	!	!	!	!	!	!	!	!	!
=37	=37	=37	=37	=37	=37	=37	=37	=37	=37	=37	=37	=37	=37	=37	=37	=37	=37	=37	=37	=37	=37	=37	=37	=37	=37	=37
*	*	*	*	*	*	*	*tremolo	*	*	*	*	*	*	*	*	*	*	*	*	*	*	*	*	*	*	*
!	!	!	!	!	!	!	!	!	!	!	!	!	!	!	!LO:TX:b:t=7:color=grey	!	!	!	!	!	!	!	!	!	!	!
4r	.	.	4r	.	(8e/L	.	8g/L	.	0.r	.	0.r	.	0.r	.	0.r	.	2.r	.	1.r	.	1.r	.	(8gg\L	.	(8bb\L	.
.	.	.	.	.	8g/)	.	8b/	.	.	.	.	.	.	.	.	.	.	.	.	.	.	.	8ee\J)	.	8gg\J)	.
4G\	.	.	4B/	.	(8e/	.	8g/	.	.	.	.	.	.	.	.	.	.	.	.	.	.	.	4ee\|	.	4gg\|	.
.	.	.	.	.	8g/)	.	8b/	.	.	.	.	.	.	.	.	.	.	.	.	.	.	.	.	.	.	.
4G\	.	.	4B/	.	(8e/	.	8g/	.	.	.	.	.	.	.	.	.	.	.	.	.	.	.	4r	.	4r	.
.	.	.	.	.	8g/J)	.	8b/J	.	.	.	.	.	.	.	.	.	.	.	.	.	.	.	.	.	.	.
=38	=38	=38	=38	=38	=38	=38	=38	=38	=38	=38	=38	=38	=38	=38	=38	=38	=38	=38	=38	=38	=38	=38	=38	=38	=38	=38
*	*	*	*	*	*tremolo	*	*	*	*	*	*	*	*	*	*	*	*	*	*	*	*	*	*	*	*	*
4r	.	.	4r	.	8c#/L	.	8e/L	.	.	.	.	.	.	.	.	.	2.r	.	.	.	.	.	8cc#\L	.	8ee\L	.
.	.	.	.	.	8e/	.	8g/	.	.	.	.	.	.	.	.	.	.	.	.	.	.	.	8ee\J	.	8gg\J	.
4A\	.	.	4A/	.	8c#/	.	8e/	.	.	.	.	.	.	.	.	.	.	.	.	.	.	.	(4.ee\	.	(4.gg\	.
.	.	.	.	.	8e/	.	8g/	.	.	.	.	.	.	.	.	.	.	.	.	.	.	.	.	.	.	.
4A\	.	.	4A/	.	8c#/	.	8e/	.	.	.	.	.	.	.	.	.	.	.	.	.	.	.	.	.	.	.
.	.	.	.	.	8e/J	.	8g/J	.	.	.	.	.	.	.	.	.	.	.	.	.	.	.	16dd\LL)	.	16ff#\LL	.
.	.	.	.	.	.	.	.	.	.	.	.	.	.	.	.	.	.	.	.	.	.	.	16cc#\JJ	.	16ee\JJ)	.
*	*	*	*	*	*	*	*Xtremolo	*	*	*	*	*	*	*	*	*	*	*	*	*	*	*	*	*	*	*
!	!	!	!	!	!	!	!LO:LB:g=original	!	!	!	!	!	!	!	!	!	!	!	!	!	!	!	!	!	!	!
=39	=39	=39	=39	=39	=39	=39	=39	=39	=39	=39	=39	=39	=39	=39	=39	=39	=39	=39	=39	=39	=39	=39	=39	=39	=39	=39
4r	.	.	4r	.	8d/L	.	8f#/L	.	.	.	.	.	.	.	.	.	2.r	.	2.r	.	2.r	.	(8ff#\L	.	(8aa\L	.
.	.	.	.	.	8f#/	.	8a/	.	.	.	.	.	.	.	.	.	.	.	.	.	.	.	8dd\J)	.	8ff#\J)	.
4D\	.	.	4A/	.	8d/	.	8f#/	.	.	.	.	.	.	.	.	.	.	.	.	.	.	.	4dd\|	.	4ff#\|	.
.	.	.	.	.	8f#/	.	8a/	.	.	.	.	.	.	.	.	.	.	.	.	.	.	.	.	.	.	.
4D\	.	.	4A/	.	8d/	.	8f#/	.	.	.	.	.	.	.	.	.	.	.	.	.	.	.	4r	.	4r	.
.	.	.	.	.	8f#/J	.	8a/J	.	.	.	.	.	.	.	.	.	.	.	.	.	.	.	.	.	.	.
*	*	*	*	*	*Xtremolo	*	*	*	*	*	*	*	*	*	*	*	*	*	*	*	*	*	*	*	*	*
!	!	!	!	!	!	!	!	!	!	!	!	!	!	!	!	!	!	!	!	!	!	!	!LO:LB:g=original	!	!	!
=40	=40	=40	=40	=40	=40	=40	=40	=40	=40	=40	=40	=40	=40	=40	=40	=40	=40	=40	=40	=40	=40	=40	=40	=40	=40	=40
!	!	!	!	!	!	!	!	!	!	!	!	!	!	!	!	!	!	!	!LO:TX:a:i:t=Solo&colon;:mod=Solo	!	!LO:TX:a:i:rj:t=Solo&colon;:mod=Solo	!	!	!	!	!
4r	.	.	4r	.	(8d/L	.	8f#/L	.	.	.	.	.	.	.	.	.	2.r	.	2d\	.	2f#\	.	(4.dd\	.	(4.ff#\	.
.	.	.	.	.	8f#/)	.	8a/	.	.	.	.	.	.	.	.	.	.	.	.	.	.	.	.	.	.	.
4D\	.	.	4A/	.	(8d/	.	8f#/	.	.	.	.	.	.	.	.	.	.	.	.	.	.	.	.	.	.	.
.	.	.	.	.	8f#/)	.	8a/	.	.	.	.	.	.	.	.	.	.	.	.	.	.	.	16cc#\LL)	.	16ee\LL)	.
.	.	.	.	.	.	.	.	.	.	.	.	.	.	.	.	.	.	.	.	.	.	.	16dd\JJ	.	16ff#\JJ	.
4G\	.	.	4B/	.	(8e/	.	8g/	.	.	.	.	.	.	.	.	.	.	.	4e\	.	4g\	.	8ee\L	.	8gg\L	.
.	.	.	.	.	8g/J)	.	8b/J	.	.	.	.	.	.	.	.	.	.	.	.	.	.	.	16dd\L	.	16ff#\L	.
.	.	.	.	.	.	.	.	.	.	.	.	.	.	.	.	.	.	.	.	.	.	.	16ee\JJ	.	16gg\JJ	.
!	!	!	!LO:LB:g=original	!	!	!	!	!	!	!	!	!	!	!	!	!	!	!	!	!	!	!	!	!	!	!
=41	=41	=41	=41	=41	=41	=41	=41	=41	=41	=41	=41	=41	=41	=41	=41	=41	=41	=41	=41	=41	=41	=41	=41	=41	=41	=41
4A\	.	.	4c#\	.	(8f#/L	.	8a/L	.	1.r	.	1.r	.	1.r	.	1.r	.	2.r	.	4f#\	.	4a\	.	4ff#\	.	4aa\	.
.	.	.	.	.	8a/)	.	8f#/	.	.	.	.	.	.	.	.	.	.	.	.	.	.	.	.	.	.	.
4A#X\	.	.	4c#\	.	(8e/	.	8g/	.	.	.	.	.	.	.	.	.	.	.	4e\	.	4g\	.	4ee\	.	4gg\	.
.	.	.	.	.	8g/)	.	8e/	.	.	.	.	.	.	.	.	.	.	.	.	.	.	.	.	.	.	.
4B\	.	.	4d\	.	(8d/	.	8f#/	.	.	.	.	.	.	.	.	.	.	.	4d\	.	4f#\	.	4dd\	.	4ff#\	.
.	.	.	.	.	8f#/J)	.	8d/J	.	.	.	.	.	.	.	.	.	.	.	.	.	.	.	.	.	.	.
!	!	!	!	!	!	!	!	!	!	!	!	!	!	!	!	!	!	!	!	!	!	!	!	!	!LO:LB:g=original	!
=42	=42	=42	=42	=42	=42	=42	=42	=42	=42	=42	=42	=42	=42	=42	=42	=42	=42	=42	=42	=42	=42	=42	=42	=42	=42	=42
*	*	*	*	*	*tremolo	*	*tremolo	*	*	*	*	*	*	*	*	*	*	*	*	*	*	*	*	*	*	*
4G\	.	.	4B/	.	8g/L	.	8b/L	.	.	.	.	.	.	.	.	.	2.r	.	2e\	.	2g\	.	8dd#X\L	.	8ff#\L	.
.	.	.	.	.	8e/	.	8g/	.	.	.	.	.	.	.	.	.	.	.	.	.	.	.	8ee\J	.	8gg\J	.
4G\	.	.	4B/	.	8g/	.	8b/	.	.	.	.	.	.	.	.	.	.	.	.	.	.	.	(4.gg\	.	4.bb\	.
.	.	.	.	.	8e/	.	8g/	.	.	.	.	.	.	.	.	.	.	.	.	.	.	.	.	.	.	.
!LO:SIC:v:o=4G#X\	!	!	!	!	!	!	!	!	!	!	!	!	!	!	!	!	!	!	!	!	!	!	!	!	!	!
4G	.	.	4B/	.	8g/	.	8b/	.	.	.	.	.	.	.	.	.	.	.	4e\	.	4g\	.	.	.	.	.
.	.	.	.	.	8e/J	.	8g/J	.	.	.	.	.	.	.	.	.	.	.	.	.	.	.	8ee\)	.	8gg\	.
*	*	*	*	*	*Xtremolo	*	*Xtremolo	*	*	*	*	*	*	*	*	*	*	*	*	*	*	*	*	*	*	*
=43	=43	=43	=43	=43	=43	=43	=43	=43	=43	=43	=43	=43	=43	=43	=43	=43	=43	=43	=43	=43	=43	=43	=43	=43	=43	=43
8A\	.	.	4A/	.	8d/L	.	8f#/L	.	2.r	.	2.r	.	2.r	.	2.r	.	2.r	.	4d\	.	4f#\	.	8ddn\L	.	8ff#\L	.
8r	.	.	.	.	16c#/L	.	16e/L	.	.	.	.	.	.	.	.	.	.	.	.	.	.	.	16cc#\L	.	16ee\L	.
.	.	.	.	.	16d/JJ	.	16f#/JJ	.	.	.	.	.	.	.	.	.	.	.	.	.	.	.	16dd\JJ	.	16ff#\JJ	.
!LO:LB:g=original	!	!	!	!	!	!	!	!	!	!	!	!	!	!	!	!	!	!	!	!	!	!	!	!	!	!
!LO:TX:a:i:t=Org&colon;	!	!	!	!	!	!	!	!	!	!	!	!	!	!	!	!	!	!	!	!	!	!	!	!	!	!
8A\L|	.	.	4A/	.	4c#/	.	4e/	.	.	.	.	.	.	.	.	.	.	.	4A/	.	4e\	.	4cc#\	.	4ee\	.
8Gn\|	.	.	.	.	.	.	.	.	.	.	.	.	.	.	.	.	.	.	.	.	.	.	.	.	.	.
!	!	!	!LO:MO:mod=!null:null	!	!	!	!	!	!	!	!	!	!	!	!	!	!	!	!	!	!	!	!	!	!	!
!	!	!	!LO:TX:a:i:t=Colar&colon;	!	!	!	!	!	!	!	!	!	!	!	!	!	!	!	!	!	!	!	!	!	!	!
8F#\|	.	.	4r	.	4r	.	4r	.	.	.	.	.	.	.	.	.	.	.	4r	.	4r	.	4r	.	4r	.
!LO:TX:a:i:t=tutti:mod=	!	!	!	!	!	!	!	!	!	!	!	!	!	!	!	!	!	!	!	!	!	!	!	!	!	!
8E\J|	.	.	.	.	.	.	.	.	.	.	.	.	.	.	.	.	.	.	.	.	.	.	.	.	.	.
!	!	!	!	!	!LO:LB:g=original	!	!	!	!	!	!	!	!	!	!	!	!	!	!	!	!	!	!	!	!	!
=44	=44	=44	=44	=44	=44	=44	=44	=44	=44	=44	=44	=44	=44	=44	=44	=44	=44	=44	=44	=44	=44	=44	=44	=44	=44	=44
*	*	*	*	*	*	*	*	*	*	*	*	*	*	*	*	*	*tremolo	*	*	*	*	*	*	*	*	*
*	*	*	*	*	*	*	*	*	*	*	*	*	*	*	*	*	*2\right	*	*	*	*	*	*	*	*	*
!	!	!LO:MO:null:mod=!LO&colon;DY&colon;ed=brack	!	!	!	!	!	!	!	!	!	!	!	!	!	!	!	!	!	!	!	!	!	!	!	!
!	!	!	!LO:MO:null:mod=!LO&colon;TX&colon;i&colon;t=arco	!LO:DY:a:t=for	!	!LO:DY:a:t=f&colon;	!	!LO:DY:a:rj:t=for	!	!	!	!	!	!	!	!	!LO:SIC:o=16DM\LL	!LO:DY:b:rj:t=p&colon;	!	!LO:DY:a:t=f&colon;	!	!LO:DY:a:rj:t=f&colon;	!	!LO:DY:a:t=f&colon;	!	!LO:DY:a:rj:t=f&colon;
!	!	!LO:MO:null:mod=f	!	!	!LO:SIC:o=8dd\L	!	!LO:SIC:o=8ff#\L	!	!	!	!	!	!	!	!	!	!	!LO:MO:mod=f	!	!	!	!	!	!	!	!
4D\	.	.	4A/	f	(8ddL	f	(8ff#L	f	2.D\	A-	2.A\	A-	2.f#\	A-	2.dd\	A-	16DLL	p	2.d\	f	2.f#\	f	2.dd\	f	2.ff#\	f
.	.	.	.	.	.	.	.	.	.	.	.	.	.	.	.	.	16DM\	.	.	.	.	.	.	.	.	.
!	!	!	!	!	!LO:SIC:o=8ff#\J	!	!LO:SIC:o=8aa\J	!	!	!	!	!	!	!	!	!	!	!	!	!	!	!	!	!	!	!
.	.	.	.	.	8ff#J)	.	8aaJ)	.	.	.	.	.	.	.	.	.	16DM\	.	.	.	.	.	.	.	.	.
.	.	.	.	.	.	.	.	.	.	.	.	.	.	.	.	.	16DM\	.	.	.	.	.	.	.	.	.
4D\	.	.	4a\	.	8r	.	8r	.	.	.	.	.	.	.	.	.	16DM\	.	.	.	.	.	.	.	.	.
.	.	.	.	.	.	.	.	.	.	.	.	.	.	.	.	.	16DM\	.	.	.	.	.	.	.	.	.
!	!	!	!	!	!	!	!LO:SIC:o=8aa\L	!	!	!	!	!	!	!	!	!	!	!	!	!	!	!	!	!	!	!
.	.	.	.	.	8ff#\L|	.	8aaL|	.	.	.	.	.	.	.	.	.	16DM\	.	.	.	.	.	.	.	.	.
.	.	.	.	.	.	.	.	.	.	.	.	.	.	.	.	.	16DM\	.	.	.	.	.	.	.	.	.
!	!	!	!	!	!	!	!LO:SIC:o=8gg\	!	!	!	!	!	!	!	!	!	!	!	!	!	!	!	!	!	!	!
4D\	.	.	4a\	.	(8ee\	.	(8gg	.	.	.	.	.	.	.	.	.	16DM\	.	.	.	.	.	.	.	.	.
.	.	.	.	.	.	.	.	.	.	.	.	.	.	.	.	.	16DM\	.	.	.	.	.	.	.	.	.
!	!	!	!	!	!	!	!LO:SIC:o=8ff#\J	!	!	!	!	!	!	!	!	!	!	!	!	!	!	!	!	!	!	!
.	.	.	.	.	8dd\J)	.	8ff@=#J)	.	.	.	.	.	.	.	.	.	16DM\	.	.	.	.	.	.	.	.	.
.	.	.	.	.	.	.	.	.	.	.	.	.	.	.	.	.	16DM\JJ	.	.	.	.	.	.	.	.	.
!	!	!	!	!	!	!	!LO:LB:g=original	!	!	!	!	!	!	!	!	!	!	!	!	!	!	!	!	!	!	!
=45	=45	=45	=45	=45	=45	=45	=45	=45	=45	=45	=45	=45	=45	=45	=45	=45	=45	=45	=45	=45	=45	=45	=45	=45	=45	=45
!	!	!	!	!	!	!	!LO:SIC:o=8ee\L	!	!	!	!	!	!	!	!	!	!LO:SIC:o=16AAM/LL	!	!	!	!	!	!	!	!	!
4A\	.	.	4a\	.	(8cc#\L	.	(8eeL	.	2.A\	-gnus	2.c#\	-gnus	2.g\	-gnus	2.ee\	-gnus	16AALL	.	2.e\	.	2.g\	.	2.ee\	.	2.gg\	.
.	.	.	.	.	.	.	.	.	.	.	.	.	.	.	.	.	16AAM/	.	.	.	.	.	.	.	.	.
!	!	!	!	!	!	!	!LO:SIC:o=8gg\J	!	!	!	!	!	!	!	!	!	!	!	!	!	!	!	!	!	!	!
.	.	.	.	.	8ee\J)	.	8ggJ)	.	.	.	.	.	.	.	.	.	16AAM/	.	.	.	.	.	.	.	.	.
.	.	.	.	.	.	.	.	.	.	.	.	.	.	.	.	.	16AAM/	.	.	.	.	.	.	.	.	.
4A\	.	.	4a\	.	8r	.	8r	.	.	.	.	.	.	.	.	.	16AAM/	.	.	.	.	.	.	.	.	.
.	.	.	.	.	.	.	.	.	.	.	.	.	.	.	.	.	16AAM/	.	.	.	.	.	.	.	.	.
!	!	!	!	!	!	!	!LO:SIC:o=8gg\L	!	!	!	!	!	!	!	!	!	!	!	!	!	!	!	!	!	!	!
.	.	.	.	.	(8ee\L|	.	8ggL|	.	.	.	.	.	.	.	.	.	16AAM/	.	.	.	.	.	.	.	.	.
.	.	.	.	.	.	.	.	.	.	.	.	.	.	.	.	.	16AAM/	.	.	.	.	.	.	.	.	.
!	!	!	!	!	!LO:SIC:o=8dd\	!	!LO:SIC:o=8ff#\	!	!	!	!	!	!	!	!	!	!	!	!	!	!	!	!	!	!	!
4A\	.	.	4a\	.	(8dd	.	(8ff#	.	.	.	.	.	.	.	.	.	16AAM/	.	.	.	.	.	.	.	.	.
.	.	.	.	.	.	.	.	.	.	.	.	.	.	.	.	.	16AAM/	.	.	.	.	.	.	.	.	.
!	!	!	!	!	!	!	!LO:SIC:o=8ee\J	!	!	!	!	!	!	!	!	!	!	!	!	!	!	!	!	!	!	!
.	.	.	.	.	8cc#\J)	.	8eeJ)	.	.	.	.	.	.	.	.	.	16AAM/	.	.	.	.	.	.	.	.	.
.	.	.	.	.	.	.	.	.	.	.	.	.	.	.	.	.	16AAM/JJ	.	.	.	.	.	.	.	.	.
=46	=46	=46	=46	=46	=46	=46	=46	=46	=46	=46	=46	=46	=46	=46	=46	=46	=46	=46	=46	=46	=46	=46	=46	=46	=46	=46
!	!	!	!	!	!	!	!LO:SIC:o=8ff#\L	!	!	!	!	!	!	!	!	!	!LO:SIC:o=16DM\LL	!	!	!	!	!	!	!	!	!
4D\	.	.	4a\	.	(8dd\L	.	(8ff#L	.	4D\	De-	4d\	De-	4a\	De-	4ff#\	De-	16DLL	.	2.f#\	.	2.a\	.	2.ff#\	.	2.aa\	.
.	.	.	.	.	.	.	.	.	.	.	.	.	.	.	.	.	16DM\	.	.	.	.	.	.	.	.	.
!	!	!	!	!	!	!	!LO:SIC:o=8aa\J	!	!	!	!	!	!	!	!	!	!	!	!	!	!	!	!	!	!	!
.	.	.	.	.	8ff#\J)	.	8aaJ)	.	.	.	.	.	.	.	.	.	16DM\	.	.	.	.	.	.	.	.	.
.	.	.	.	.	.	.	.	.	.	.	.	.	.	.	.	.	16DM\	.	.	.	.	.	.	.	.	.
4D\	.	.	4a\	.	8r	.	8r	.	4D\	-i	4A\	-i	4a\	-i	4ff#\	-i	16DM\	.	.	.	.	.	.	.	.	.
.	.	.	.	.	.	.	.	.	.	.	.	.	.	.	.	.	16DM\	.	.	.	.	.	.	.	.	.
!	!	!	!	!	!	!	!LO:SIC:o=8aa\L	!	!	!	!	!	!	!	!	!	!	!	!	!	!	!	!	!	!	!
.	.	.	.	.	8ff#\L|	.	8aaL|	.	.	.	.	.	.	.	.	.	16DM\	.	.	.	.	.	.	.	.	.
.	.	.	.	.	.	.	.	.	.	.	.	.	.	.	.	.	16DM\	.	.	.	.	.	.	.	.	.
!	!	!	!	!	!	!	!LO:SIC:o=8ff#\	!	!	!LO:MO:mod=qui	!	!LO:MO:mod=qui	!	!LO:MO:mod=qui	!	!LO:MO:mod=qui	!	!	!	!	!	!	!	!	!	!
4D\	.	.	4a\	.	(8dd\	.	(8ff#	.	4D\	qvi	4A\	qvi	4a\	qvi	4ff#\	qvi	16DM\	.	.	.	.	.	.	.	.	.
.	.	.	.	.	.	.	.	.	.	.	.	.	.	.	.	.	16DM\	.	.	.	.	.	.	.	.	.
!	!	!	!	!	!	!	!LO:SIC:o=8aa\J	!	!	!	!	!	!	!	!	!	!	!	!	!	!	!	!	!	!	!
.	.	.	.	.	8ff#\J)	.	8aaJ)	.	.	.	.	.	.	.	.	.	16DM\	.	.	.	.	.	.	.	.	.
.	.	.	.	.	.	.	.	.	.	.	.	.	.	.	.	.	16DM\JJ	.	.	.	.	.	.	.	.	.
*	*	*	*	*	*	*	*	*	*	*	*	*	*	*	*	*	*Xtremolo	*	*	*	*	*	*	*	*	*
!	!	!	!	!	!	!	!	!	!LO:LB:g=original	!	!	!	!	!	!LO:LB:g=original	!	!	!	!LO:LB:g=original	!	!LO:LB:g=original	!	!LO:LB:g=original	!	!	!
=47	=47	=47	=47	=47	=47	=47	=47	=47	=47	=47	=47	=47	=47	=47	=47	=47	=47	=47	=47	=47	=47	=47	=47	=47	=47	=47
!	!	!	!	!	!	!	!	!	!	!	!	!	!	!	!LO:SIC:v:o=4dd\	!	!	!	!	!	!	!	!	!	!	!
4A\	.	.	4a\	.	8ee\L	.	8gg\L	.	4A\	tol-	4A\	tol-	4g\	tol-	4ee	tol-	4AA/	.	4e\	.	4g\	.	4ee\	.	4gg\	.
.	.	.	.	.	16dd\L	.	16ff#\L	.	.	.	.	.	.	.	.	.	.	.	.	.	.	.	.	.	.	.
.	.	.	.	.	16ee\JJ	.	16gg\JJ	.	.	.	.	.	.	.	.	.	.	.	.	.	.	.	.	.	.	.
!	!	!	!	!	!LO:TX:a:t=P:problem=mixed beam	!	!	!	!	!	!	!	!	!	!	!	!	!	!	!	!	!	!	!	!	!
4D\	.	.	4a\	.	8dd\L	.	16ff#\LL	.	4D\	-lis	4A\	-lis	4f#\	-lis	4dd\	-lis	4D\	.	4d\	.	4f#\	.	4dd\	.	4ff#\	.
.	.	.	.	.	.	.	16dd\	.	.	.	.	.	.	.	.	.	.	.	.	.	.	.	.	.	.	.
.	.	.	.	.	8f#/J	.	16ee\	.	.	.	.	.	.	.	.	.	.	.	.	.	.	.	.	.	.	.
.	.	.	.	.	.	.	16dd\JJ	.	.	.	.	.	.	.	.	.	.	.	.	.	.	.	.	.	.	.
!	!	!	!	!	!	!	!	!	!	!	!	!	!LO:LB:g=original	!	!	!	!	!	!	!	!	!	!	!	!	!
8r	.	.	8r	.	16a\LL	.	16ff#\LL	.	8r	.	8r	.	8r	.	8r	.	8r	.	8r	.	8r	.	8r	.	8r	.
.	.	.	.	.	16dd\	.	16dd\	.	.	.	.	.	.	.	.	.	.	.	.	.	.	.	.	.	.	.
!	!	!	!	!	!	!	!	!	!	!LO:MO:mod=qui	!	!LO:MO:mod=qui	!	!LO:MO:mod=qui	!	!LO:MO:mod=qui	!	!	!	!	!	!	!	!	!	!
8D\	.	.	8a\	.	16ff#\	.	16aa\	.	8D\	qvi	8A\	qvi	8f#\	qvi	8dd\	qvi	8D\	.	8d\	.	8f#\	.	8dd\	.	8ff#\	.
.	.	.	.	.	16dd\JJ	.	16ff#\JJ	.	.	.	.	.	.	.	.	.	.	.	.	.	.	.	.	.	.	.
!	!	!	!LO:LB:g=original	!	!	!	!	!	!	!	!LO:LB:g=original	!	!	!	!	!	!	!	!	!	!	!	!	!	!	!
=48	=48	=48	=48	=48	=48	=48	=48	=48	=48	=48	=48	=48	=48	=48	=48	=48	=48	=48	=48	=48	=48	=48	=48	=48	=48	=48
4A\	4	.	4a\	.	8dd\L	.	8ff#\L	.	4A\	tol-	4A\	tol-	4f#\	tol-	4dd\	tol-	4D\	.	4d\	.	4f#\	.	4dd\	.	4ff#\	.
.	.	.	.	.	16cc#\L	.	16ee\L	.	.	.	.	.	.	.	.	.	.	.	.	.	.	.	.	.	.	.
.	.	.	.	.	16dd\JJ	.	16ff#\JJ	.	.	.	.	.	.	.	.	.	.	.	.	.	.	.	.	.	.	.
4AA/	3	.	4a\	.	16cc#/LL	.	16ee\LL	.	4AA/	-lis	4A\	-lis	4e\	-lis	4cc#\	-lis	4AA/	.	4A/	.	4e\	.	4cc#\	.	4ee\	.
.	.	.	.	.	16a/	.	16cc#\	.	.	.	.	.	.	.	.	.	.	.	.	.	.	.	.	.	.	.
.	.	.	.	.	16b/	.	16dd\	.	.	.	.	.	.	.	.	.	.	.	.	.	.	.	.	.	.	.
.	.	.	.	.	16a/JJ	.	16cc#\JJ	.	.	.	.	.	.	.	.	.	.	.	.	.	.	.	.	.	.	.
!	!	!	!	!	!LO:LB:g=original	!	!	!	!	!	!	!	!	!	!	!	!	!	!	!	!	!	!	!	!	!
8r	.	.	8r	.	16cc#\LL	.	16ee\LL	.	8r	.	8r	.	8r	.	8r	.	8r	.	8r	.	8r	.	8r	.	8r	.
.	.	.	.	.	16a\	.	16cc#\	.	.	.	.	.	.	.	.	.	.	.	.	.	.	.	.	.	.	.
*	*	*	*	*	*	*	*	*	*	*ij	*	*ij	*	*ij	*	*ij	*	*	*	*	*	*	*	*	*	*
!	!	!	!	!	!	!	!	!	!	!LO:MO:mod=qui	!	!LO:MO:mod=qui	!	!LO:MO:mod=qui	!	!LO:MO:mod=qui	!	!	!	!	!	!	!	!	!	!
8A\	.	.	8a\	.	16cc#\	.	16aa\	.	8A\	qvi	8A\	qvi	8g\	qvi	8ee\	qvi	8AA/	.	8e\	.	8g\	.	8ee\	.	8gg\	.
.	.	.	.	.	16ee\JJ	.	16gg\JJ	.	.	.	.	.	.	.	.	.	.	.	.	.	.	.	.	.	.	.
!	!	!	!	!	!	!	!LO:LB:g=original	!	!	!	!	!	!	!	!	!	!	!	!	!	!	!	!	!	!LO:LB:g=original	!
=49	=49	=49	=49	=49	=49	=49	=49	=49	=49	=49	=49	=49	=49	=49	=49	=49	=49	=49	=49	=49	=49	=49	=49	=49	=49	=49
!LO:SIC:v:o=4d\	!	!	!	!	!	!	!	!	!LO:SIC:v:o=4d\	!	!	!	!LO:SIC:v:o=4f#\	!	!	!	!	!	!	!	!	!	!	!	!	!
4A	4	.	4a\	.	8ee\L	.	8gg\L	.	4A	tol-	4A\	tol-	4g	tol-	4ee\	tol-	4AA/	.	4e\	.	4g\	.	4ee\	.	4gg\	.
.	.	.	.	.	16dd\L	.	16ff#\L	.	.	.	.	.	.	.	.	.	.	.	.	.	.	.	.	.	.	.
.	.	.	.	.	16ee\JJ	.	16gg\JJ	.	.	.	.	.	.	.	.	.	.	.	.	.	.	.	.	.	.	.
!	!	!	!	!	!LO:TX:a:t=P:problem=mixed beam	!	!	!	!	!	!	!	!	!	!	!	!	!	!	!	!	!	!	!	!	!
4D\	3	.	4a\	.	16dd\LL	.	16ff#\LL	.	4D\	-lis	4A\	-lis	4f#\	-lis	4dd\	-lis	4D\	.	4d\	.	4f#\	.	4dd\	.	4ff#\	.
*	*	*	*	*	*	*	*	*	*	*Xij	*	*Xij	*	*Xij	*	*Xij	*	*	*	*	*	*	*	*	*	*
.	.	.	.	.	16f#/	.	16dd\	.	.	.	.	.	.	.	.	.	.	.	.	.	.	.	.	.	.	.
.	.	.	.	.	16g/	.	16ee\	.	.	.	.	.	.	.	.	.	.	.	.	.	.	.	.	.	.	.
.	.	.	.	.	16f#/JJ	.	16dd\JJ	.	.	.	.	.	.	.	.	.	.	.	.	.	.	.	.	.	.	.
8r	.	.	8r	.	8a\L	.	16ff#\LL	.	8r	.	8r	.	8r	.	8r	.	8r	.	8r	.	8r	.	8r	.	8r	.
.	.	.	.	.	.	.	16dd\	.	.	.	.	.	.	.	.	.	.	.	.	.	.	.	.	.	.	.
!	!	!	!	!	!	!	!	!	!	!	!	!	!	!	!LO:SIC:v:o=8cc#\	!	!	!	!	!	!	!	!	!	!	!
8D\	.	.	8a\	.	8dd\J	.	16ff#\	.	8D\	pec-	8A\	pec-	8f#\	pec-	8dd	pec-	8D\	.	8f#\	.	8a\	.	8dd\	.	8aa\	.
.	.	.	.	.	.	.	16gg#X\JJ	.	.	.	.	.	.	.	.	.	.	.	.	.	.	.	.	.	.	.
!LO:LB:g=original	!	!	!	!	!	!	!	!	!	!	!	!	!	!	!	!	!	!	!	!	!	!	!	!	!	!
=50	=50	=50	=50	=50	=50	=50	=50	=50	=50	=50	=50	=50	=50	=50	=50	=50	=50	=50	=50	=50	=50	=50	=50	=50	=50	=50
*	*	*	*	*	*	*	*	*	*	*	*	*	*	*	*	*	*tremolo	*	*	*	*	*	*	*	*	*
!	!	!	!	!	!	!	!	!	!	!	!	!	!	!	!	!	!LO:SIC:o=16DM\LL	!	!	!	!	!	!	!	!	!
4B\	7_	.	8f#\L	.	8dd\L	.	8aa\L	.	2B\	-ca-	2f#\	-ca-	2a\	-ca-	2dd\	-ca-	16DLL	.	2f#\	.	2a\	.	2.dd\	.	2aa\	.
.	.	.	.	.	.	.	.	.	.	.	.	.	.	.	.	.	16DM\	.	.	.	.	.	.	.	.	.
.	.	.	8f#\	.	8dd\	.	8aa\	.	.	.	.	.	.	.	.	.	16DM\	.	.	.	.	.	.	.	.	.
.	.	.	.	.	.	.	.	.	.	.	.	.	.	.	.	.	16DM\	.	.	.	.	.	.	.	.	.
4B\	.	.	8f#\	.	8dd\	.	8aa\	.	.	.	.	.	.	.	.	.	16DM\	.	.	.	.	.	.	.	.	.
.	.	.	.	.	.	.	.	.	.	.	.	.	.	.	.	.	16DM\	.	.	.	.	.	.	.	.	.
.	.	.	8f#\	.	8dd\	.	8aa\	.	.	.	.	.	.	.	.	.	16DM\	.	.	.	.	.	.	.	.	.
.	.	.	.	.	.	.	.	.	.	.	.	.	.	.	.	.	16DM\JJ	.	.	.	.	.	.	.	.	.
*	*	*	*	*	*	*	*	*	*	*	*	*	*	*	*	*	*Xtremolo	*	*	*	*	*	*	*	*	*
4B\	6	.	8e\	.	8dd\	.	8gg#X\	.	4B\	-ta	4e\	-ta	4g#X\	-ta	4dd\	-ta	4AA/	.	4e\	.	4g#X\	.	.	.	4gg#X\	.
.	.	.	8e\J	.	8dd\J	.	8gg#\J	.	.	.	.	.	.	.	.	.	.	.	.	.	.	.	.	.	.	.
=51	=51	=51	=51	=51	=51	=51	=51	=51	=51	=51	=51	=51	=51	=51	=51	=51	=51	=51	=51	=51	=51	=51	=51	=51	=51	=51
4A\	.	.	4e\	.	4cc#\	.	4aa\	.	4A\	mun-	4e\	mun-	4a\	mun-	4cc#\	mun-	4AA/	.	4A/	.	4a\	.	4cc#\	.	4aa\	.
4AA/	.	.	4e\	.	4cc#\	.	4aa\	.	4AA/	-di	4e\	-di	4a\	-di	4cc#\	-di	4AA/	.	4A/	.	4a\	.	4cc#\	.	4aa\	.
!LO:TX:b:i:t=Verte Dona:mod=	!	!	!	!	!	!	!	!	!	!	!	!	!	!	!	!	!	!	!	!	!	!	!	!	!	!
4r	.	.	4r	.	4r	.	4r	.	4r	.	4r	.	4r	.	4r	.	4r	.	4r	.	4r	.	4r	.	4r	.
==	==	==	==	==	==	==	==	==	==	==	==	==	==	==	==	==	==	==	==	==	==	==	==	==	==	==
*-	*-	*-	*-	*-	*-	*-	*-	*-	*-	*-	*-	*-	*-	*-	*-	*-	*-	*-	*-	*-	*-	*-	*-	*-	*-	*-
!!!system-decoration: [(g1)][(g2)]<s5>[(g3)][(g4)]s13
!!!RDF**kern: | = vertical stroke
!!!filter-modern: sic -sq | shed -e "s/TX(.*):t=P:/tx$1:t=P:/LG" | shed -e "s/^(\d+[\/\\]right)/$1yy/I; s/^(\d+[\/\\]left)/$1yy/I" | shed -e "s/:rj/:RJ/L" | shed -k -e "s/r[a-gA-G]+/r/D"| shed -e "s/LO:DY:(a|b|rj|t)/LO:dy:$1/L" | autostem -r | tie -s | shed -k -e "s/[<>]//g" | modori -m | humtr -p
!!!ENC: Marcin Jachim
!!!END: 2020-07-06
!!!EED: Marta Lawrence
!!!EEV: 2021-01-21
!!!ENC-modern: Andrzej Borzym
!!!END-modern: 2022-07-12
